%
O0000
(PROGRAM NAME - ROTPL(SHORT))
(DATE=DD-MM-YY - 22-03-14 TIME=HH:MM - 16:38)
(MCX FILE - C:\USERS\BOYDLAB\DOCUMENTS\GITHUB\MAVRIC_HARDWARE\ARM\ARM DESIGN 2013-2014\MASTERCAM\ROTPLATESHORT.MCX-7)
(NC FILE - C:\USERS\BOYDLAB\DOCUMENTS\GITHUB\MAVRIC_HARDWARE\ARM\ARM DESIGN 2013-2014\MASTERCAM\ROTPL(SHORT).NC)
(MATERIAL - ALUMINUM INCH - 2024)
N100 G20
N110 G0 G17 G40 G49 G80 G90
(  NO. 32 DRILL   TOOL - 3  DIA. OFF. - 3  LEN. - 3  DIA. - .116 )
N120 T3 M6
N130 G0 G90 G54 X1.1049 Y-.6038 A0. S3000 M3
N140 G43 H3 Z.1 M8
N150 G83 G99 X1.1049 Y-.6038 Z-.2948 R.1 V-.1 Q.1 D.1 F4.06
N160 G80
N170 M5
N180 M9
A0. N190 M01
(  1/4 FLAT ENDMILL   TOOL - 4  DIA. OFF. - 4  LEN. - 4  DIA. - .25 )
N200 T4 M6
N210 G0 G90 G54 X0. Y0. A0. S2300 M3
N220 G43 H4 Z.25 M8
N230 Z.1
N240 G1 Z0. F6.42
N250 G3 X.0625 Y-.0625 R.0625 F6.
N260 X.125 Y0. R.0625
N270 G1 X.1235 Y.0196 Z-.002
N280 X.1189 Y.0386 Z-.004
N290 X.1114 Y.0567 Z-.006
N300 X.1011 Y.0735 Z-.008
N310 X.0884 Y.0884 Z-.01
N320 X.0735 Y.1011 Z-.012
N330 X.0567 Y.1114 Z-.014
N340 X.0386 Y.1189 Z-.016
N350 X.0196 Y.1235 Z-.018
N360 X0. Y.125 Z-.02
N370 X-.0196 Y.1235 Z-.022
N380 X-.0386 Y.1189 Z-.024
N390 X-.0567 Y.1114 Z-.026
N400 X-.0735 Y.1011 Z-.028
N410 X-.0884 Y.0884 Z-.03
N420 X-.1011 Y.0735 Z-.032
N430 X-.1114 Y.0567 Z-.034
N440 X-.1189 Y.0386 Z-.036
N450 X-.1235 Y.0196 Z-.038
N460 X-.125 Y0. Z-.04
N470 X-.1235 Y-.0196 Z-.042
N480 X-.1189 Y-.0386 Z-.044
N490 X-.1114 Y-.0567 Z-.046
N500 X-.1011 Y-.0735 Z-.048
N510 X-.0884 Y-.0884 Z-.05
N520 X-.0735 Y-.1011 Z-.052
N530 X-.0567 Y-.1114 Z-.054
N540 X-.0386 Y-.1189 Z-.056
N550 X-.0196 Y-.1235 Z-.058
N560 X0. Y-.125 Z-.06
N570 X.0196 Y-.1235 Z-.062
N580 X.0386 Y-.1189 Z-.064
N590 X.0567 Y-.1114 Z-.066
N600 X.0735 Y-.1011 Z-.068
N610 X.0884 Y-.0884 Z-.07
N620 X.1011 Y-.0735 Z-.072
N630 X.1114 Y-.0567 Z-.074
N640 X.1189 Y-.0386 Z-.076
N650 X.1235 Y-.0196 Z-.078
N660 X.125 Y0. Z-.08
N670 X.1235 Y.0196 Z-.082
N680 X.1189 Y.0386 Z-.084
N690 X.1114 Y.0567 Z-.086
N700 X.1011 Y.0735 Z-.088
N710 X.0884 Y.0884 Z-.09
N720 X.0735 Y.1011 Z-.092
N730 X.0567 Y.1114 Z-.094
N740 X.0386 Y.1189 Z-.096
N750 X.0196 Y.1235 Z-.098
N760 X0. Y.125 Z-.1
N770 X-.0196 Y.1235 Z-.102
N780 X-.0386 Y.1189 Z-.104
N790 X-.0567 Y.1114 Z-.106
N800 X-.0735 Y.1011 Z-.108
N810 X-.0884 Y.0884 Z-.11
N820 X-.1011 Y.0735 Z-.112
N830 X-.1114 Y.0567 Z-.114
N840 X-.1189 Y.0386 Z-.116
N850 X-.1235 Y.0196 Z-.118
N860 X-.125 Y0. Z-.12
N870 X-.1235 Y-.0196 Z-.122
N880 X-.1189 Y-.0386 Z-.124
N890 X-.1114 Y-.0567 Z-.126
N900 X-.1011 Y-.0735 Z-.128
N910 X-.0884 Y-.0884 Z-.13
N920 X-.0735 Y-.1011 Z-.132
N930 X-.0567 Y-.1114 Z-.134
N940 X-.0386 Y-.1189 Z-.136
N950 X-.0196 Y-.1235 Z-.138
N960 X0. Y-.125 Z-.14
N970 X.0196 Y-.1235 Z-.142
N980 X.0386 Y-.1189 Z-.144
N990 X.0567 Y-.1114 Z-.146
N1000 X.0735 Y-.1011 Z-.148
N1010 X.0884 Y-.0884 Z-.15
N1020 X.1011 Y-.0735 Z-.152
N1030 X.1114 Y-.0567 Z-.154
N1040 X.1189 Y-.0386 Z-.156
N1050 X.1235 Y-.0196 Z-.158
N1060 X.125 Y0. Z-.16
N1070 X.1235 Y.0196 Z-.162
N1080 X.1189 Y.0386 Z-.164
N1090 X.1114 Y.0567 Z-.166
N1100 X.1011 Y.0735 Z-.168
N1110 X.0884 Y.0884 Z-.17
N1120 X.0735 Y.1011 Z-.172
N1130 X.0567 Y.1114 Z-.174
N1140 X.0386 Y.1189 Z-.176
N1150 X.0196 Y.1235 Z-.178
N1160 X0. Y.125 Z-.18
N1170 X-.0196 Y.1235 Z-.182
N1180 X-.0386 Y.1189 Z-.184
N1190 X-.0567 Y.1114 Z-.186
N1200 X-.0735 Y.1011 Z-.188
N1210 X-.0884 Y.0884 Z-.19
N1220 X-.1011 Y.0735 Z-.192
N1230 X-.1114 Y.0567 Z-.194
N1240 X-.1189 Y.0386 Z-.196
N1250 X-.1235 Y.0196 Z-.198
N1260 X-.125 Y0. Z-.2
N1270 X-.1235 Y-.0196 Z-.202
N1280 X-.1189 Y-.0386 Z-.204
N1290 X-.1114 Y-.0567 Z-.206
N1300 X-.1011 Y-.0735 Z-.208
N1310 X-.0884 Y-.0884 Z-.21
N1320 X-.0735 Y-.1011 Z-.212
N1330 X-.0567 Y-.1114 Z-.214
N1340 X-.0386 Y-.1189 Z-.216
N1350 X-.0196 Y-.1235 Z-.218
N1360 X0. Y-.125 Z-.22
N1370 X.0196 Y-.1235 Z-.222
N1380 X.0386 Y-.1189 Z-.224
N1390 X.0567 Y-.1114 Z-.226
N1400 X.0735 Y-.1011 Z-.228
N1410 X.0884 Y-.0884 Z-.23
N1420 X.1011 Y-.0735 Z-.232
N1430 X.1114 Y-.0567 Z-.234
N1440 X.1189 Y-.0386 Z-.236
N1450 X.1235 Y-.0196 Z-.238
N1460 X.125 Y0. Z-.24
N1470 X.1235 Y.0196 Z-.242
N1480 X.1189 Y.0386 Z-.244
N1490 X.1114 Y.0567 Z-.246
N1500 X.1011 Y.0735 Z-.248
N1510 X.0884 Y.0884 Z-.25
N1520 X.0735 Y.1011 Z-.252
N1530 X.0567 Y.1114 Z-.254
N1540 X.0386 Y.1189 Z-.256
N1550 X.0196 Y.1235 Z-.258
N1560 X0. Y.125 Z-.26
N1570 G3 X-.125 Y0. R.125 F3.6
N1580 X0. Y-.125 R.125
N1590 X.125 Y0. R.125
N1600 X0. Y.125 R.125
N1610 X-.0625 Y.0625 R.0625
N1620 X0. Y0. R.0625
N1630 G0 Z.25
N1640 X1.1049 Y-1.1049
N1650 Z.1
N1660 G1 Z0. F6.42
N1670 G3 X1.1924 Y-1.1924 R.0875 F6.
N1680 X1.2799 Y-1.1049 R.0875
N1690 G1 X1.2784 Y-1.0821 Z-.0017
N1700 X1.2739 Y-1.0596 Z-.0033
N1710 X1.2666 Y-1.0379 Z-.005
N1720 X1.2565 Y-1.0174 Z-.0067
N1730 X1.2437 Y-.9984 Z-.0083
N1740 X1.2286 Y-.9812 Z-.01
N1750 X1.2114 Y-.9661 Z-.0117
N1760 X1.1924 Y-.9533 Z-.0133
N1770 X1.1719 Y-.9432 Z-.015
N1780 X1.1502 Y-.9359 Z-.0167
N1790 X1.1277 Y-.9314 Z-.0183
N1800 X1.1049 Y-.9299 Z-.02
N1810 X1.0821 Y-.9314 Z-.0217
N1820 X1.0596 Y-.9359 Z-.0233
N1830 X1.0379 Y-.9432 Z-.025
N1840 X1.0174 Y-.9533 Z-.0267
N1850 X.9984 Y-.9661 Z-.0283
N1860 X.9812 Y-.9812 Z-.03
N1870 X.9661 Y-.9984 Z-.0317
N1880 X.9533 Y-1.0174 Z-.0333
N1890 X.9432 Y-1.0379 Z-.035
N1900 X.9359 Y-1.0596 Z-.0367
N1910 X.9314 Y-1.0821 Z-.0383
N1920 X.9299 Y-1.1049 Z-.04
N1930 X.9314 Y-1.1277 Z-.0417
N1940 X.9359 Y-1.1502 Z-.0433
N1950 X.9432 Y-1.1719 Z-.045
N1960 X.9533 Y-1.1924 Z-.0467
N1970 X.9661 Y-1.2114 Z-.0483
N1980 X.9812 Y-1.2286 Z-.05
N1990 X.9984 Y-1.2437 Z-.0517
N2000 X1.0174 Y-1.2565 Z-.0533
N2010 X1.0379 Y-1.2666 Z-.055
N2020 X1.0596 Y-1.2739 Z-.0567
N2030 X1.0821 Y-1.2784 Z-.0583
N2040 X1.1049 Y-1.2799 Z-.06
N2050 X1.1277 Y-1.2784 Z-.0617
N2060 X1.1502 Y-1.2739 Z-.0633
N2070 X1.1719 Y-1.2666 Z-.065
N2080 X1.1924 Y-1.2565 Z-.0667
N2090 X1.2114 Y-1.2437 Z-.0683
N2100 X1.2286 Y-1.2286 Z-.07
N2110 X1.2437 Y-1.2114 Z-.0717
N2120 X1.2565 Y-1.1924 Z-.0733
N2130 X1.2666 Y-1.1719 Z-.075
N2140 X1.2739 Y-1.1502 Z-.0767
N2150 X1.2784 Y-1.1277 Z-.0783
N2160 X1.2799 Y-1.1049 Z-.08
N2170 X1.2784 Y-1.0821 Z-.0817
N2180 X1.2739 Y-1.0596 Z-.0833
N2190 X1.2666 Y-1.0379 Z-.085
N2200 X1.2565 Y-1.0174 Z-.0867
N2210 X1.2437 Y-.9984 Z-.0883
N2220 X1.2286 Y-.9812 Z-.09
N2230 X1.2114 Y-.9661 Z-.0917
N2240 X1.1924 Y-.9533 Z-.0933
N2250 X1.1719 Y-.9432 Z-.095
N2260 X1.1502 Y-.9359 Z-.0967
N2270 X1.1277 Y-.9314 Z-.0983
N2280 X1.1049 Y-.9299 Z-.1
N2290 X1.0821 Y-.9314 Z-.1017
N2300 X1.0596 Y-.9359 Z-.1033
N2310 X1.0379 Y-.9432 Z-.105
N2320 X1.0174 Y-.9533 Z-.1067
N2330 X.9984 Y-.9661 Z-.1083
N2340 X.9812 Y-.9812 Z-.11
N2350 X.9661 Y-.9984 Z-.1117
N2360 X.9533 Y-1.0174 Z-.1133
N2370 X.9432 Y-1.0379 Z-.115
N2380 X.9359 Y-1.0596 Z-.1167
N2390 X.9314 Y-1.0821 Z-.1183
N2400 X.9299 Y-1.1049 Z-.12
N2410 X.9314 Y-1.1277 Z-.1217
N2420 X.9359 Y-1.1502 Z-.1233
N2430 X.9432 Y-1.1719 Z-.125
N2440 X.9533 Y-1.1924 Z-.1267
N2450 X.9661 Y-1.2114 Z-.1283
N2460 X.9812 Y-1.2286 Z-.13
N2470 X.9984 Y-1.2437 Z-.1317
N2480 X1.0174 Y-1.2565 Z-.1333
N2490 X1.0379 Y-1.2666 Z-.135
N2500 X1.0596 Y-1.2739 Z-.1367
N2510 X1.0821 Y-1.2784 Z-.1383
N2520 X1.1049 Y-1.2799 Z-.14
N2530 X1.1277 Y-1.2784 Z-.1417
N2540 X1.1502 Y-1.2739 Z-.1433
N2550 X1.1719 Y-1.2666 Z-.145
N2560 X1.1924 Y-1.2565 Z-.1467
N2570 X1.2114 Y-1.2437 Z-.1483
N2580 X1.2286 Y-1.2286 Z-.15
N2590 X1.2437 Y-1.2114 Z-.1517
N2600 X1.2565 Y-1.1924 Z-.1533
N2610 X1.2666 Y-1.1719 Z-.155
N2620 X1.2739 Y-1.1502 Z-.1567
N2630 X1.2784 Y-1.1277 Z-.1583
N2640 X1.2799 Y-1.1049 Z-.16
N2650 X1.2784 Y-1.0821 Z-.1617
N2660 X1.2739 Y-1.0596 Z-.1633
N2670 X1.2666 Y-1.0379 Z-.165
N2680 X1.2565 Y-1.0174 Z-.1667
N2690 X1.2437 Y-.9984 Z-.1683
N2700 X1.2286 Y-.9812 Z-.17
N2710 X1.2114 Y-.9661 Z-.1717
N2720 X1.1924 Y-.9533 Z-.1733
N2730 X1.1719 Y-.9432 Z-.175
N2740 X1.1502 Y-.9359 Z-.1767
N2750 X1.1277 Y-.9314 Z-.1783
N2760 X1.1049 Y-.9299 Z-.18
N2770 X1.0821 Y-.9314 Z-.1817
N2780 X1.0596 Y-.9359 Z-.1833
N2790 X1.0379 Y-.9432 Z-.185
N2800 X1.0174 Y-.9533 Z-.1867
N2810 X.9984 Y-.9661 Z-.1883
N2820 X.9812 Y-.9812 Z-.19
N2830 X.9661 Y-.9984 Z-.1917
N2840 X.9533 Y-1.0174 Z-.1933
N2850 X.9432 Y-1.0379 Z-.195
N2860 X.9359 Y-1.0596 Z-.1967
N2870 X.9314 Y-1.0821 Z-.1983
N2880 X.9299 Y-1.1049 Z-.2
N2890 X.9314 Y-1.1277 Z-.2017
N2900 X.9359 Y-1.1502 Z-.2033
N2910 X.9432 Y-1.1719 Z-.205
N2920 X.9533 Y-1.1924 Z-.2067
N2930 X.9661 Y-1.2114 Z-.2083
N2940 X.9812 Y-1.2286 Z-.21
N2950 X.9984 Y-1.2437 Z-.2117
N2960 X1.0174 Y-1.2565 Z-.2133
N2970 X1.0379 Y-1.2666 Z-.215
N2980 X1.0596 Y-1.2739 Z-.2167
N2990 X1.0821 Y-1.2784 Z-.2183
N3000 X1.1049 Y-1.2799 Z-.22
N3010 X1.1277 Y-1.2784 Z-.2217
N3020 X1.1502 Y-1.2739 Z-.2233
N3030 X1.1719 Y-1.2666 Z-.225
N3040 X1.1924 Y-1.2565 Z-.2267
N3050 X1.2114 Y-1.2437 Z-.2283
N3060 X1.2286 Y-1.2286 Z-.23
N3070 X1.2437 Y-1.2114 Z-.2317
N3080 X1.2565 Y-1.1924 Z-.2333
N3090 X1.2666 Y-1.1719 Z-.235
N3100 X1.2739 Y-1.1502 Z-.2367
N3110 X1.2784 Y-1.1277 Z-.2383
N3120 X1.2799 Y-1.1049 Z-.24
N3130 X1.2784 Y-1.0821 Z-.2417
N3140 X1.2739 Y-1.0596 Z-.2433
N3150 X1.2666 Y-1.0379 Z-.245
N3160 X1.2565 Y-1.0174 Z-.2467
N3170 X1.2437 Y-.9984 Z-.2483
N3180 X1.2286 Y-.9812 Z-.25
N3190 X1.2114 Y-.9661 Z-.2517
N3200 X1.1924 Y-.9533 Z-.2533
N3210 X1.1719 Y-.9432 Z-.255
N3220 X1.1502 Y-.9359 Z-.2567
N3230 X1.1277 Y-.9314 Z-.2583
N3240 X1.1049 Y-.9299 Z-.26
N3250 G3 X.9299 Y-1.1049 R.175 F3.6
N3260 X1.1049 Y-1.2799 R.175
N3270 X1.2799 Y-1.1049 R.175
N3280 X1.1049 Y-.9299 R.175
N3290 X1.0174 Y-1.0174 R.0875
N3300 X1.1049 Y-1.1049 R.0875
N3310 G0 Z.25
N3320 M5
N3330 M9
A0. N3340 M01
(  1/2 FLAT ENDMILL   TOOL - 5  DIA. OFF. - 5  LEN. - 5  DIA. - .5 )
N3350 T5 M6
N3360 G0 G90 G54 X-2.3202 Y1.798 A0. S2000 M3
N3370 G43 H5 Z.25 M8
N3380 Z.2
N3390 G1 Z.1 F6.42
N3400 X-2.2914 Y1.8246 Z.0979 F12.
N3410 X-2.2606 Y1.8489 Z.0959
N3420 X-2.2279 Y1.8707 Z.0938
N3430 X-2.1937 Y1.8899 Z.0918
N3440 X-2.158 Y1.9063 Z.0897
N3450 X-2.1212 Y1.9199 Z.0876
N3460 X-2.0835 Y1.9305 Z.0856
N3470 X-2.045 Y1.9382 Z.0835
N3480 X-2.006 Y1.9428 Z.0815
N3490 X-1.9668 Y1.9443 Z.0794
N3500 X-1.9255 Y1.9426 Z.0772
N3510 X-1.8845 Y1.9375 Z.0751
N3520 X-1.8441 Y1.929 Z.0729
N3530 X-1.8045 Y1.9172 Z.0707
N3540 X-1.766 Y1.9022 Z.0686
N3550 X-1.7289 Y1.8841 Z.0664
N3560 X-1.6934 Y1.8629 Z.0643
N3570 X-1.6597 Y1.8389 Z.0621
N3580 X-1.6282 Y1.8122 Z.0599
N3590 X-1.599 Y1.783 Z.0578
N3600 X-1.5723 Y1.7515 Z.0556
N3610 X-1.5483 Y1.7178 Z.0534
N3620 X-1.5271 Y1.6823 Z.0513
N3630 X-1.509 Y1.6452 Z.0491
N3640 X-1.494 Y1.6067 Z.047
N3650 X-1.4822 Y1.5671 Z.0448
N3660 X-1.4737 Y1.5267 Z.0426
N3670 X-1.4686 Y1.4857 Z.0405
N3680 X-1.4669 Y1.4444 Z.0383
N3690 X-1.4686 Y1.4031 Z.0361
N3700 X-1.4737 Y1.3621 Z.034
N3710 X-1.4822 Y1.3217 Z.0318
N3720 X-1.494 Y1.2821 Z.0296
N3730 X-1.509 Y1.2436 Z.0275
N3740 X-1.5271 Y1.2065 Z.0253
N3750 X-1.5483 Y1.171 Z.0231
N3760 X-1.5723 Y1.1373 Z.021
N3770 X-1.599 Y1.1058 Z.0188
N3780 X-1.6282 Y1.0766 Z.0166
N3790 X-1.6597 Y1.0499 Z.0144
N3800 X-1.6934 Y1.0259 Z.0123
N3810 X-1.7289 Y1.0047 Z.0101
N3820 X-1.766 Y.9866 Z.0079
N3830 X-1.8045 Y.9716 Z.0058
N3840 X-1.8441 Y.9598 Z.0036
N3850 X-1.8845 Y.9513 Z.0014
N3860 X-1.9255 Y.9462 Z-.0007
N3870 X-1.9668 Y.9445 Z-.0029
N3880 X-2.0081 Y.9462 Z-.0051
N3890 X-2.0491 Y.9513 Z-.0072
N3900 X-2.0895 Y.9598 Z-.0094
N3910 X-2.1291 Y.9716 Z-.0116
N3920 X-2.1676 Y.9866 Z-.0137
N3930 X-2.2047 Y1.0047 Z-.0159
N3940 X-2.2402 Y1.0259 Z-.0181
N3950 X-2.2739 Y1.0499 Z-.0202
N3960 X-2.3054 Y1.0766 Z-.0224
N3970 X-2.3346 Y1.1058 Z-.0246
N3980 X-2.3613 Y1.1373 Z-.0268
N3990 X-2.3853 Y1.171 Z-.0289
N4000 X-2.4065 Y1.2065 Z-.0311
N4010 X-2.4246 Y1.2436 Z-.0333
N4020 X-2.4396 Y1.2821 Z-.0354
N4030 X-2.4514 Y1.3217 Z-.0376
N4040 X-2.4599 Y1.3621 Z-.0398
N4050 X-2.465 Y1.4031 Z-.0419
N4060 X-2.4667 Y1.4444 Z-.0441
N4070 X-2.4652 Y1.4835 Z-.0461
N4080 X-2.4606 Y1.5223 Z-.0482
N4090 X-2.453 Y1.5606 Z-.0502
N4100 X-2.4425 Y1.5983 Z-.0523
N4110 X-2.429 Y1.635 Z-.0543
N4120 X-2.4127 Y1.6705 Z-.0564
N4130 X-2.3936 Y1.7047 Z-.0584
N4140 X-2.372 Y1.7372 Z-.0605
N4150 X-2.3479 Y1.768 Z-.0625
N4160 X-2.2035 Y1.6454
N4170 G3 X-2.4495 Y1.25 R2.75
N4180 G1 X-2.0749
N4190 G2 X-2.1115 Y1.3985 R1.
N4200 X-2.2035 Y1.6454 R1.375
N4210 G1 X-2.2111 Y1.6032
N4220 X-2.2185 Y1.5572
N4230 X-2.2247 Y1.5113
N4240 X-2.23 Y1.4655
N4250 X-2.2342 Y1.4198
N4260 X-2.2374 Y1.3742
N4270 X-2.229 Y1.3689
N4280 X-2.2248 Y1.3662
N4290 X-2.2207 Y1.3636
N4300 X-2.1582 Y1.3836
N4310 X-2.1014 Y1.4017
N4320 X-2.0495 Y1.4182
N4330 X-1.958 Y1.4471
N4340 X-1.9175 Y1.4599
N4350 X-1.8698 Y1.4747
N4360 G2 X-2. Y2. R1.125
N4370 X-1.9687 Y2.2637 R1.125
N4380 G3 X-2.8284 Y1. R3.
N4390 G1 X-1.6211
N4400 G2 X-1.8698 Y1.4747 R.75
N4410 G1 X-1.6248 Y1.549
N4420 G2 X-1.75 Y2. R.875
N4430 X-1.6248 Y2.451 R.875
N4440 X-1.125 Y2.9375 R.5
N4450 G1 X-.75
N4460 Y3.1623
N4470 G3 X-3.1623 Y.75 R3.25
N4480 G1 X-.75
N4490 Y1.0625
N4500 X-1.125
N4510 G2 X-1.6248 Y1.549 R.5
N4520 G1 X-1.5781 Y1.5625
N4530 X-1.375
N4540 Y1.625
N4550 G2 X-1.5 Y2. R.625
N4560 X-1.375 Y2.375 R.625
N4570 G1 Y2.4375
N4580 G2 X-1.125 Y2.6875 R.25
N4590 G1 X-.5
N4600 Y3.4641
N4610 G3 X-3.4641 Y.5 R3.5
N4620 G1 X-.559
N4630 G2 X-.5 Y.559 R.75
N4640 G1 Y1.3125
N4650 X-1.125
N4660 G2 X-1.375 Y1.5625 R.25
N4670 G1 Z.1375 F6.42
N4680 G0 Z.1875
N4690 X-2.3202 Y1.798
N4700 Z.1375
N4710 G1 Z.0375
N4720 X-2.2914 Y1.8246 Z.0354 F12.
N4730 X-2.2606 Y1.8489 Z.0334
N4740 X-2.2279 Y1.8707 Z.0313
N4750 X-2.1937 Y1.8899 Z.0293
N4760 X-2.158 Y1.9063 Z.0272
N4770 X-2.1212 Y1.9199 Z.0251
N4780 X-2.0835 Y1.9305 Z.0231
N4790 X-2.045 Y1.9382 Z.021
N4800 X-2.006 Y1.9428 Z.019
N4810 X-1.9668 Y1.9443 Z.0169
N4820 X-1.9255 Y1.9426 Z.0147
N4830 X-1.8845 Y1.9375 Z.0126
N4840 X-1.8441 Y1.929 Z.0104
N4850 X-1.8045 Y1.9172 Z.0082
N4860 X-1.766 Y1.9022 Z.0061
N4870 X-1.7289 Y1.8841 Z.0039
N4880 X-1.6934 Y1.8629 Z.0018
N4890 X-1.6597 Y1.8389 Z-.0004
N4900 X-1.6282 Y1.8122 Z-.0026
N4910 X-1.599 Y1.783 Z-.0047
N4920 X-1.5723 Y1.7515 Z-.0069
N4930 X-1.5483 Y1.7178 Z-.0091
N4940 X-1.5271 Y1.6823 Z-.0112
N4950 X-1.509 Y1.6452 Z-.0134
N4960 X-1.494 Y1.6067 Z-.0155
N4970 X-1.4822 Y1.5671 Z-.0177
N4980 X-1.4737 Y1.5267 Z-.0199
N4990 X-1.4686 Y1.4857 Z-.022
N5000 X-1.4669 Y1.4444 Z-.0242
N5010 X-1.4686 Y1.4031 Z-.0264
N5020 X-1.4737 Y1.3621 Z-.0285
N5030 X-1.4822 Y1.3217 Z-.0307
N5040 X-1.494 Y1.2821 Z-.0329
N5050 X-1.509 Y1.2436 Z-.035
N5060 X-1.5271 Y1.2065 Z-.0372
N5070 X-1.5483 Y1.171 Z-.0394
N5080 X-1.5723 Y1.1373 Z-.0415
N5090 X-1.599 Y1.1058 Z-.0437
N5100 X-1.6282 Y1.0766 Z-.0459
N5110 X-1.6597 Y1.0499 Z-.0481
N5120 X-1.6934 Y1.0259 Z-.0502
N5130 X-1.7289 Y1.0047 Z-.0524
N5140 X-1.766 Y.9866 Z-.0546
N5150 X-1.8045 Y.9716 Z-.0567
N5160 X-1.8441 Y.9598 Z-.0589
N5170 X-1.8845 Y.9513 Z-.0611
N5180 X-1.9255 Y.9462 Z-.0632
N5190 X-1.9668 Y.9445 Z-.0654
N5200 X-2.0081 Y.9462 Z-.0676
N5210 X-2.0491 Y.9513 Z-.0697
N5220 X-2.0895 Y.9598 Z-.0719
N5230 X-2.1291 Y.9716 Z-.0741
N5240 X-2.1676 Y.9866 Z-.0762
N5250 X-2.2047 Y1.0047 Z-.0784
N5260 X-2.2402 Y1.0259 Z-.0806
N5270 X-2.2739 Y1.0499 Z-.0827
N5280 X-2.3054 Y1.0766 Z-.0849
N5290 X-2.3346 Y1.1058 Z-.0871
N5300 X-2.3613 Y1.1373 Z-.0893
N5310 X-2.3853 Y1.171 Z-.0914
N5320 X-2.4065 Y1.2065 Z-.0936
N5330 X-2.4246 Y1.2436 Z-.0958
N5340 X-2.4396 Y1.2821 Z-.0979
N5350 X-2.4514 Y1.3217 Z-.1001
N5360 X-2.4599 Y1.3621 Z-.1023
N5370 X-2.465 Y1.4031 Z-.1044
N5380 X-2.4667 Y1.4444 Z-.1066
N5390 X-2.4652 Y1.4835 Z-.1086
N5400 X-2.4606 Y1.5223 Z-.1107
N5410 X-2.453 Y1.5606 Z-.1127
N5420 X-2.4425 Y1.5983 Z-.1148
N5430 X-2.429 Y1.635 Z-.1168
N5440 X-2.4127 Y1.6705 Z-.1189
N5450 X-2.3936 Y1.7047 Z-.1209
N5460 X-2.372 Y1.7372 Z-.123
N5470 X-2.3479 Y1.768 Z-.125
N5480 X-2.2035 Y1.6454
N5490 G3 X-2.4495 Y1.25 R2.75
N5500 G1 X-2.0749
N5510 G2 X-2.1115 Y1.3985 R1.
N5520 X-2.2035 Y1.6454 R1.375
N5530 G1 X-2.2111 Y1.6032
N5540 X-2.2185 Y1.5572
N5550 X-2.2247 Y1.5113
N5560 X-2.23 Y1.4655
N5570 X-2.2342 Y1.4198
N5580 X-2.2374 Y1.3742
N5590 X-2.229 Y1.3689
N5600 X-2.2248 Y1.3662
N5610 X-2.2207 Y1.3636
N5620 X-2.1582 Y1.3836
N5630 X-2.1014 Y1.4017
N5640 X-2.0495 Y1.4182
N5650 X-1.958 Y1.4471
N5660 X-1.9175 Y1.4599
N5670 X-1.8698 Y1.4747
N5680 G2 X-2. Y2. R1.125
N5690 X-1.9687 Y2.2637 R1.125
N5700 G3 X-2.8284 Y1. R3.
N5710 G1 X-1.6211
N5720 G2 X-1.8698 Y1.4747 R.75
N5730 G1 X-1.6248 Y1.549
N5740 G2 X-1.75 Y2. R.875
N5750 X-1.6248 Y2.451 R.875
N5760 X-1.125 Y2.9375 R.5
N5770 G1 X-.75
N5780 Y3.1623
N5790 G3 X-3.1623 Y.75 R3.25
N5800 G1 X-.75
N5810 Y1.0625
N5820 X-1.125
N5830 G2 X-1.6248 Y1.549 R.5
N5840 G1 X-1.5781 Y1.5625
N5850 X-1.375
N5860 Y1.625
N5870 G2 X-1.5 Y2. R.625
N5880 X-1.375 Y2.375 R.625
N5890 G1 Y2.4375
N5900 G2 X-1.125 Y2.6875 R.25
N5910 G1 X-.5
N5920 Y3.4641
N5930 G3 X-3.4641 Y.5 R3.5
N5940 G1 X-.559
N5950 G2 X-.5 Y.559 R.75
N5960 G1 Y1.3125
N5970 X-1.125
N5980 G2 X-1.375 Y1.5625 R.25
N5990 G1 Z.075 F6.42
N6000 G0 Z.125
N6010 Z.25
N6020 X2.2859 Y1.4035
N6030 Z.2
N6040 G1 Z.1
N6050 X2.3126 Y1.4356 Z.0978 F12.
N6060 X2.3419 Y1.4653 Z.0956
N6070 X2.3735 Y1.4925 Z.0934
N6080 X2.4074 Y1.517 Z.0912
N6090 X2.4431 Y1.5386 Z.089
N6100 X2.4805 Y1.5571 Z.0869
N6110 X2.5194 Y1.5724 Z.0847
N6120 X2.5593 Y1.5844 Z.0825
N6130 X2.6002 Y1.5931 Z.0803
N6140 X2.6416 Y1.5983 Z.0781
N6150 X2.6833 Y1.6 Z.0759
N6160 X2.7246 Y1.5983 Z.0737
N6170 X2.7656 Y1.5932 Z.0716
N6180 X2.8061 Y1.5847 Z.0694
N6190 X2.8457 Y1.5729 Z.0672
N6200 X2.8842 Y1.5579 Z.0651
N6210 X2.9213 Y1.5398 Z.0629
N6220 X2.9568 Y1.5186 Z.0608
N6230 X2.9904 Y1.4946 Z.0586
N6240 X3.022 Y1.4679 Z.0564
N6250 X3.0512 Y1.4387 Z.0543
N6260 X3.0779 Y1.4071 Z.0521
N6270 X3.1019 Y1.3735 Z.0499
N6280 X3.1231 Y1.338 Z.0478
N6290 X3.1412 Y1.3009 Z.0456
N6300 X3.1562 Y1.2624 Z.0435
N6310 X3.168 Y1.2228 Z.0413
N6320 X3.1765 Y1.1823 Z.0391
N6330 X3.1816 Y1.1413 Z.037
N6340 X3.1833 Y1.1 Z.0348
N6350 X3.1816 Y1.0587 Z.0326
N6360 X3.1765 Y1.0177 Z.0305
N6370 X3.168 Y.9772 Z.0283
N6380 X3.1562 Y.9376 Z.0261
N6390 X3.1412 Y.8991 Z.024
N6400 X3.1231 Y.862 Z.0218
N6410 X3.1019 Y.8265 Z.0196
N6420 X3.0779 Y.7929 Z.0175
N6430 X3.0512 Y.7613 Z.0153
N6440 X3.022 Y.7321 Z.0131
N6450 X2.9904 Y.7054 Z.0109
N6460 X2.9568 Y.6814 Z.0088
N6470 X2.9213 Y.6602 Z.0066
N6480 X2.8842 Y.6421 Z.0044
N6490 X2.8457 Y.6271 Z.0023
N6500 X2.8061 Y.6153 Z.0001
N6510 X2.7656 Y.6068 Z-.0021
N6520 X2.7246 Y.6017 Z-.0042
N6530 X2.6833 Y.6 Z-.0064
N6540 X2.642 Y.6017 Z-.0086
N6550 X2.601 Y.6068 Z-.0107
N6560 X2.5605 Y.6153 Z-.0129
N6570 X2.5209 Y.6271 Z-.0151
N6580 X2.4824 Y.6421 Z-.0172
N6590 X2.4453 Y.6602 Z-.0194
N6600 X2.4098 Y.6814 Z-.0216
N6610 X2.3762 Y.7054 Z-.0237
N6620 X2.3446 Y.7321 Z-.0259
N6630 X2.3154 Y.7613 Z-.0281
N6640 X2.2887 Y.7929 Z-.0303
N6650 X2.2647 Y.8265 Z-.0324
N6660 X2.2435 Y.862 Z-.0346
N6670 X2.2254 Y.8991 Z-.0368
N6680 X2.2104 Y.9376 Z-.0389
N6690 X2.1986 Y.9772 Z-.0411
N6700 X2.1901 Y1.0177 Z-.0433
N6710 X2.185 Y1.0587 Z-.0454
N6720 X2.1833 Y1.1 Z-.0476
N6730 X2.1849 Y1.1407 Z-.0497
N6740 X2.1899 Y1.1811 Z-.0519
N6750 X2.1981 Y1.221 Z-.054
N6760 X2.2096 Y1.2601 Z-.0561
N6770 X2.2242 Y1.2982 Z-.0582
N6780 X2.2419 Y1.3349 Z-.0604
N6790 X2.2624 Y1.37 Z-.0625
N6800 X2.4495 Y1.25
N6810 G3 X2.2035 Y1.6454 R2.75
N6820 G2 X2.1115 Y1.3985 R1.375
N6830 X2.0749 Y1.25 R1.
N6840 G1 X2.4495
N6850 X2.8284 Y1.
N6860 G3 X1.9687 Y2.2637 R3.
N6870 G2 X2. Y2. R1.125
N6880 X1.8698 Y1.4747 R1.125
N6890 X1.6211 Y1. R.75
N6900 G1 X2.8284
N6910 X3.1623 Y.75
N6920 G3 X.75 Y3.1623 R3.25
N6930 G1 Y2.9375
N6940 X1.125
N6950 G2 X1.6248 Y2.451 R.5
N6960 X1.75 Y2. R.875
N6970 X1.6248 Y1.549 R.875
N6980 X1.125 Y1.0625 R.5
N6990 G1 X.75
N7000 Y.75
N7010 X3.1623
N7020 X3.4641 Y.5
N7030 G3 X.5 Y3.4641 R3.5
N7040 G1 Y2.6875
N7050 X1.125
N7060 G2 X1.375 Y2.4375 R.25
N7070 G1 Y2.375
N7080 G2 X1.5 Y2. R.625
N7090 X1.375 Y1.625 R.625
N7100 G1 Y1.5625
N7110 G2 X1.125 Y1.3125 R.25
N7120 G1 X.5
N7130 Y.559
N7140 G2 X.559 Y.5 R.75
N7150 G1 X3.4641
N7160 Z.1375 F6.42
N7170 G0 Z.1875
N7180 X2.2859 Y1.4035
N7190 Z.1375
N7200 G1 Z.0375
N7210 X2.3126 Y1.4356 Z.0353 F12.
N7220 X2.3419 Y1.4653 Z.0331
N7230 X2.3735 Y1.4925 Z.0309
N7240 X2.4074 Y1.517 Z.0287
N7250 X2.4431 Y1.5386 Z.0265
N7260 X2.4805 Y1.5571 Z.0244
N7270 X2.5194 Y1.5724 Z.0222
N7280 X2.5593 Y1.5844 Z.02
N7290 X2.6002 Y1.5931 Z.0178
N7300 X2.6416 Y1.5983 Z.0156
N7310 X2.6833 Y1.6 Z.0134
N7320 X2.7246 Y1.5983 Z.0112
N7330 X2.7656 Y1.5932 Z.0091
N7340 X2.8061 Y1.5847 Z.0069
N7350 X2.8457 Y1.5729 Z.0047
N7360 X2.8842 Y1.5579 Z.0026
N7370 X2.9213 Y1.5398 Z.0004
N7380 X2.9568 Y1.5186 Z-.0017
N7390 X2.9904 Y1.4946 Z-.0039
N7400 X3.022 Y1.4679 Z-.0061
N7410 X3.0512 Y1.4387 Z-.0082
N7420 X3.0779 Y1.4071 Z-.0104
N7430 X3.1019 Y1.3735 Z-.0126
N7440 X3.1231 Y1.338 Z-.0147
N7450 X3.1412 Y1.3009 Z-.0169
N7460 X3.1562 Y1.2624 Z-.019
N7470 X3.168 Y1.2228 Z-.0212
N7480 X3.1765 Y1.1823 Z-.0234
N7490 X3.1816 Y1.1413 Z-.0255
N7500 X3.1833 Y1.1 Z-.0277
N7510 X3.1816 Y1.0587 Z-.0299
N7520 X3.1765 Y1.0177 Z-.032
N7530 X3.168 Y.9772 Z-.0342
N7540 X3.1562 Y.9376 Z-.0364
N7550 X3.1412 Y.8991 Z-.0385
N7560 X3.1231 Y.862 Z-.0407
N7570 X3.1019 Y.8265 Z-.0429
N7580 X3.0779 Y.7929 Z-.045
N7590 X3.0512 Y.7613 Z-.0472
N7600 X3.022 Y.7321 Z-.0494
N7610 X2.9904 Y.7054 Z-.0516
N7620 X2.9568 Y.6814 Z-.0537
N7630 X2.9213 Y.6602 Z-.0559
N7640 X2.8842 Y.6421 Z-.0581
N7650 X2.8457 Y.6271 Z-.0602
N7660 X2.8061 Y.6153 Z-.0624
N7670 X2.7656 Y.6068 Z-.0646
N7680 X2.7246 Y.6017 Z-.0667
N7690 X2.6833 Y.6 Z-.0689
N7700 X2.642 Y.6017 Z-.0711
N7710 X2.601 Y.6068 Z-.0732
N7720 X2.5605 Y.6153 Z-.0754
N7730 X2.5209 Y.6271 Z-.0776
N7740 X2.4824 Y.6421 Z-.0797
N7750 X2.4453 Y.6602 Z-.0819
N7760 X2.4098 Y.6814 Z-.0841
N7770 X2.3762 Y.7054 Z-.0862
N7780 X2.3446 Y.7321 Z-.0884
N7790 X2.3154 Y.7613 Z-.0906
N7800 X2.2887 Y.7929 Z-.0928
N7810 X2.2647 Y.8265 Z-.0949
N7820 X2.2435 Y.862 Z-.0971
N7830 X2.2254 Y.8991 Z-.0993
N7840 X2.2104 Y.9376 Z-.1014
N7850 X2.1986 Y.9772 Z-.1036
N7860 X2.1901 Y1.0177 Z-.1058
N7870 X2.185 Y1.0587 Z-.1079
N7880 X2.1833 Y1.1 Z-.1101
N7890 X2.1849 Y1.1407 Z-.1122
N7900 X2.1899 Y1.1811 Z-.1144
N7910 X2.1981 Y1.221 Z-.1165
N7920 X2.2096 Y1.2601 Z-.1186
N7930 X2.2242 Y1.2982 Z-.1207
N7940 X2.2419 Y1.3349 Z-.1229
N7950 X2.2624 Y1.37 Z-.125
N7960 X2.4495 Y1.25
N7970 G3 X2.2035 Y1.6454 R2.75
N7980 G2 X2.1115 Y1.3985 R1.375
N7990 X2.0749 Y1.25 R1.
N8000 G1 X2.4495
N8010 X2.8284 Y1.
N8020 G3 X1.9687 Y2.2637 R3.
N8030 G2 X2. Y2. R1.125
N8040 X1.8698 Y1.4747 R1.125
N8050 X1.6211 Y1. R.75
N8060 G1 X2.8284
N8070 X3.1623 Y.75
N8080 G3 X.75 Y3.1623 R3.25
N8090 G1 Y2.9375
N8100 X1.125
N8110 G2 X1.6248 Y2.451 R.5
N8120 X1.75 Y2. R.875
N8130 X1.6248 Y1.549 R.875
N8140 X1.125 Y1.0625 R.5
N8150 G1 X.75
N8160 Y.75
N8170 X3.1623
N8180 X3.4641 Y.5
N8190 G3 X.5 Y3.4641 R3.5
N8200 G1 Y2.6875
N8210 X1.125
N8220 G2 X1.375 Y2.4375 R.25
N8230 G1 Y2.375
N8240 G2 X1.5 Y2. R.625
N8250 X1.375 Y1.625 R.625
N8260 G1 Y1.5625
N8270 G2 X1.125 Y1.3125 R.25
N8280 G1 X.5
N8290 Y.559
N8300 G2 X.559 Y.5 R.75
N8310 G1 X3.4641
N8320 Z.075 F6.42
N8330 G0 Z.125
N8340 Z.25
N8350 X1.3002 Y-2.3271
N8360 Z.2
N8370 G1 Z.1
N8380 X1.3365 Y-2.3401 Z.098 F12.
N8390 X1.3715 Y-2.3564 Z.096
N8400 X1.4048 Y-2.3758 Z.0939
N8410 X1.4363 Y-2.3981 Z.0919
N8420 X1.4656 Y-2.4232 Z.0899
N8430 X1.4925 Y-2.4509 Z.0879
N8440 X1.5168 Y-2.4809 Z.0858
N8450 X1.5383 Y-2.5129 Z.0838
N8460 X1.5568 Y-2.5468 Z.0818
N8470 X1.5721 Y-2.5822 Z.0798
N8480 X1.5841 Y-2.6188 Z.0778
N8490 X1.5928 Y-2.6564 Z.0757
N8500 X1.5981 Y-2.6947 Z.0737
N8510 X1.5998 Y-2.7332 Z.0717
N8520 X1.598 Y-2.7724 Z.0696
N8530 X1.5926 Y-2.8113 Z.0676
N8540 X1.5836 Y-2.8495 Z.0655
N8550 X1.5711 Y-2.8867 Z.0635
N8560 X1.5553 Y-2.9226 Z.0614
N8570 X1.5362 Y-2.9569 Z.0593
N8580 X1.514 Y-2.9893 Z.0573
N8590 X1.4889 Y-3.0195 Z.0552
N8600 X1.4611 Y-3.0473 Z.0532
N8610 X1.4309 Y-3.0724 Z.0511
N8620 X1.3985 Y-3.0946 Z.0491
N8630 X1.3642 Y-3.1137 Z.047
N8640 X1.3283 Y-3.1295 Z.0449
N8650 X1.2911 Y-3.142 Z.0429
N8660 X1.2529 Y-3.151 Z.0408
N8670 X1.214 Y-3.1564 Z.0388
N8680 X1.1748 Y-3.1582 Z.0367
N8690 X1.1356 Y-3.1564 Z.0346
N8700 X1.0967 Y-3.151 Z.0326
N8710 X1.0585 Y-3.142 Z.0305
N8720 X1.0213 Y-3.1295 Z.0285
N8730 X.9854 Y-3.1137 Z.0264
N8740 X.9511 Y-3.0946 Z.0243
N8750 X.9187 Y-3.0724 Z.0223
N8760 X.8885 Y-3.0473 Z.0202
N8770 X.8607 Y-3.0195 Z.0182
N8780 X.8356 Y-2.9893 Z.0161
N8790 X.8134 Y-2.9569 Z.0141
N8800 X.7943 Y-2.9226 Z.012
N8810 X.7785 Y-2.8867 Z.0099
N8820 X.766 Y-2.8495 Z.0079
N8830 X.757 Y-2.8113 Z.0058
N8840 X.7516 Y-2.7724 Z.0038
N8850 X.7498 Y-2.7332 Z.0017
N8860 X.7516 Y-2.694 Z-.0004
N8870 X.757 Y-2.6551 Z-.0024
N8880 X.766 Y-2.6169 Z-.0045
N8890 X.7785 Y-2.5797 Z-.0065
N8900 X.7943 Y-2.5438 Z-.0086
N8910 X.8134 Y-2.5095 Z-.0106
N8920 X.8356 Y-2.4771 Z-.0127
N8930 X.8607 Y-2.4469 Z-.0147
N8940 X.8885 Y-2.4191 Z-.0168
N8950 X.9187 Y-2.394 Z-.0188
N8960 X.9511 Y-2.3718 Z-.0209
N8970 X.9854 Y-2.3527 Z-.0229
N8980 X1.0213 Y-2.3369 Z-.025
N8990 X1.0585 Y-2.3244 Z-.027
N9000 X1.0967 Y-2.3154 Z-.0291
N9010 X1.1356 Y-2.31 Z-.0311
N9020 X1.1748 Y-2.3082 Z-.0332
N9030 X1.2066 Y-2.3094 Z-.0349
N9040 X1.2382 Y-2.3129 Z-.0365
N9050 X1.2695 Y-2.3189 Z-.0382
N9060 X1.3002 Y-2.3271 Z-.0399
N9070 X1.337 Y-2.3403 Z-.042
N9080 X1.3724 Y-2.3569 Z-.044
N9090 X1.4062 Y-2.3767 Z-.0461
N9100 X1.438 Y-2.3994 Z-.0481
N9110 X1.4675 Y-2.425 Z-.0502
N9120 X1.4946 Y-2.4533 Z-.0522
N9130 X1.519 Y-2.4838 Z-.0543
N9140 X1.5404 Y-2.5165 Z-.0563
N9150 X1.5588 Y-2.551 Z-.0584
N9160 X1.5739 Y-2.5871 Z-.0604
N9170 X1.5857 Y-2.6244 Z-.0625
N9180 X1.3165 Y-2.6957
N9190 G2 X1.1049 Y-2.7097 R1.6048
N9200 X1. Y-2.7063 R1.6048
N9210 G1 Y-2.8284
N9220 G3 X1.3165 Y-2.6957 R3.
N9230 G1 X2.6957 Y-1.3165
N9240 G3 X2.8284 Y-1. R3.
N9250 G1 X2.7063
N9260 G2 X2.7097 Y-1.1049 R1.6048
N9270 X2.6957 Y-1.3165 R1.6048
N9280 G1 X2.6955
N9290 X2.7026 Y-1.293
N9300 X2.716 Y-1.2446
N9310 X2.7283 Y-1.196
N9320 X2.7393 Y-1.1472
N9330 X2.7492 Y-1.0983
N9340 X2.758 Y-1.0492
N9350 X2.7233 Y-1.016
N9360 X2.6886 Y-.9835
N9370 X2.6539 Y-.9517
N9380 X2.6192 Y-.9207
N9390 X2.5845 Y-.8903
N9400 X2.5498 Y-.8606
N9410 X2.5151 Y-.8316
N9420 X2.4804 Y-.8034
N9430 X2.4457 Y-.7758
N9440 X2.4124 Y-.75
N9450 G2 X2.4597 Y-1.1049 R1.3548
N9460 X1.1049 Y-2.4597 R1.3548
N9470 X.75 Y-2.4124 R1.3548
N9480 G1 Y-3.1623
N9490 G3 X3.1623 Y-.75 R3.25
N9500 G1 X2.4124
N9510 X2.0294 Y-.5
N9520 G2 X2.2097 Y-1.1049 R1.1048
N9530 X1.1049 Y-2.2097 R1.1048
N9540 X.5 Y-2.0294 R1.1048
N9550 G1 Y-3.4641
N9560 G3 X3.4641 Y-.5 R3.5
N9570 G1 X2.0294
N9580 Z.1375 F6.42
N9590 G0 Z.1875
N9600 X1.3002 Y-2.3271
N9610 Z.1375
N9620 G1 Z.0375
N9630 X1.3365 Y-2.3401 Z.0355 F12.
N9640 X1.3715 Y-2.3564 Z.0335
N9650 X1.4048 Y-2.3758 Z.0314
N9660 X1.4363 Y-2.3981 Z.0294
N9670 X1.4656 Y-2.4232 Z.0274
N9680 X1.4925 Y-2.4509 Z.0254
N9690 X1.5168 Y-2.4809 Z.0234
N9700 X1.5383 Y-2.5129 Z.0213
N9710 X1.5568 Y-2.5468 Z.0193
N9720 X1.5721 Y-2.5822 Z.0173
N9730 X1.5841 Y-2.6188 Z.0153
N9740 X1.5928 Y-2.6564 Z.0132
N9750 X1.5981 Y-2.6947 Z.0112
N9760 X1.5998 Y-2.7332 Z.0092
N9770 X1.598 Y-2.7724 Z.0071
N9780 X1.5926 Y-2.8113 Z.0051
N9790 X1.5836 Y-2.8495 Z.003
N9800 X1.5711 Y-2.8867 Z.001
N9810 X1.5553 Y-2.9226 Z-.0011
N9820 X1.5362 Y-2.9569 Z-.0032
N9830 X1.514 Y-2.9893 Z-.0052
N9840 X1.4889 Y-3.0195 Z-.0073
N9850 X1.4611 Y-3.0473 Z-.0093
N9860 X1.4309 Y-3.0724 Z-.0114
N9870 X1.3985 Y-3.0946 Z-.0134
N9880 X1.3642 Y-3.1137 Z-.0155
N9890 X1.3283 Y-3.1295 Z-.0176
N9900 X1.2911 Y-3.142 Z-.0196
N9910 X1.2529 Y-3.151 Z-.0217
N9920 X1.214 Y-3.1564 Z-.0237
N9930 X1.1748 Y-3.1582 Z-.0258
N9940 X1.1356 Y-3.1564 Z-.0279
N9950 X1.0967 Y-3.151 Z-.0299
N9960 X1.0585 Y-3.142 Z-.032
N9970 X1.0213 Y-3.1295 Z-.034
N9980 X.9854 Y-3.1137 Z-.0361
N9990 X.9511 Y-3.0946 Z-.0382
N100 X.9187 Y-3.0724 Z-.0402
N110 X.8885 Y-3.0473 Z-.0423
N120 X.8607 Y-3.0195 Z-.0443
N130 X.8356 Y-2.9893 Z-.0464
N140 X.8134 Y-2.9569 Z-.0484
N150 X.7943 Y-2.9226 Z-.0505
N160 X.7785 Y-2.8867 Z-.0526
N170 X.766 Y-2.8495 Z-.0546
N180 X.757 Y-2.8113 Z-.0567
N190 X.7516 Y-2.7724 Z-.0587
N200 X.7498 Y-2.7332 Z-.0608
N210 X.7516 Y-2.694 Z-.0629
N220 X.757 Y-2.6551 Z-.0649
N230 X.766 Y-2.6169 Z-.067
N240 X.7785 Y-2.5797 Z-.069
N250 X.7943 Y-2.5438 Z-.0711
N260 X.8134 Y-2.5095 Z-.0731
N270 X.8356 Y-2.4771 Z-.0752
N280 X.8607 Y-2.4469 Z-.0772
N290 X.8885 Y-2.4191 Z-.0793
N300 X.9187 Y-2.394 Z-.0813
N310 X.9511 Y-2.3718 Z-.0834
N320 X.9854 Y-2.3527 Z-.0854
N330 X1.0213 Y-2.3369 Z-.0875
N340 X1.0585 Y-2.3244 Z-.0895
N350 X1.0967 Y-2.3154 Z-.0916
N360 X1.1356 Y-2.31 Z-.0936
N370 X1.1748 Y-2.3082 Z-.0957
N380 X1.2066 Y-2.3094 Z-.0974
N390 X1.2382 Y-2.3129 Z-.099
N400 X1.2695 Y-2.3189 Z-.1007
N410 X1.3002 Y-2.3271 Z-.1024
N420 X1.337 Y-2.3403 Z-.1045
N430 X1.3724 Y-2.3569 Z-.1065
N440 X1.4062 Y-2.3767 Z-.1086
N450 X1.438 Y-2.3994 Z-.1106
N460 X1.4675 Y-2.425 Z-.1127
N470 X1.4946 Y-2.4533 Z-.1147
N480 X1.519 Y-2.4838 Z-.1168
N490 X1.5404 Y-2.5165 Z-.1188
N500 X1.5588 Y-2.551 Z-.1209
N510 X1.5739 Y-2.5871 Z-.1229
N520 X1.5857 Y-2.6244 Z-.125
N530 X1.3165 Y-2.6957
N540 G2 X1.1049 Y-2.7097 R1.6048
N550 X1. Y-2.7063 R1.6048
N560 G1 Y-2.8284
N570 G3 X1.3165 Y-2.6957 R3.
N580 G1 X2.6957 Y-1.3165
N590 G3 X2.8284 Y-1. R3.
N600 G1 X2.7063
N610 G2 X2.7097 Y-1.1049 R1.6048
N620 X2.6957 Y-1.3165 R1.6048
N630 G1 X2.6955
N640 X2.7026 Y-1.293
N650 X2.716 Y-1.2446
N660 X2.7283 Y-1.196
N670 X2.7393 Y-1.1472
N680 X2.7492 Y-1.0983
N690 X2.758 Y-1.0492
N700 X2.7233 Y-1.016
N710 X2.6886 Y-.9835
N720 X2.6539 Y-.9517
N730 X2.6192 Y-.9207
N740 X2.5845 Y-.8903
N750 X2.5498 Y-.8606
N760 X2.5151 Y-.8316
N770 X2.4804 Y-.8034
N780 X2.4457 Y-.7758
N790 X2.4124 Y-.75
N800 G2 X2.4597 Y-1.1049 R1.3548
N810 X1.1049 Y-2.4597 R1.3548
N820 X.75 Y-2.4124 R1.3548
N830 G1 Y-3.1623
N840 G3 X3.1623 Y-.75 R3.25
N850 G1 X2.4124
N860 X2.0294 Y-.5
N870 G2 X2.2097 Y-1.1049 R1.1048
N880 X1.1049 Y-2.2097 R1.1048
N890 X.5 Y-2.0294 R1.1048
N900 G1 Y-3.4641
N910 G3 X3.4641 Y-.5 R3.5
N920 G1 X2.0294
N930 Z.075 F6.42
N940 G0 Z.125
N950 Z.25
N960 X-.9592 Y-2.4001
N970 Z.2
N980 G1 Z.1
N990 X-.9229 Y-2.4055 Z.0981 F12.
N1000 X-.8872 Y-2.4142 Z.0961
N1010 X-.8525 Y-2.4262 Z.0942
N1020 X-.8191 Y-2.4413 Z.0923
N1030 X-.7872 Y-2.4593 Z.0904
N1040 X-.757 Y-2.4803 Z.0885
N1050 X-.7289 Y-2.5039 Z.0865
N1060 X-.7031 Y-2.53 Z.0846
N1070 X-.6798 Y-2.5583 Z.0827
N1080 X-.6592 Y-2.5887 Z.0808
N1090 X-.6414 Y-2.6208 Z.0788
N1100 X-.6267 Y-2.6544 Z.0769
N1110 X-.6151 Y-2.6892 Z.075
N1120 X-.6067 Y-2.725 Z.0731
N1130 X-.6017 Y-2.7613 Z.0711
N1140 X-.6 Y-2.798 Z.0692
N1150 X-.6017 Y-2.8349 Z.0673
N1160 X-.6068 Y-2.8715 Z.0653
N1170 X-.6153 Y-2.9075 Z.0634
N1180 X-.627 Y-2.9425 Z.0615
N1190 X-.6419 Y-2.9763 Z.0595
N1200 X-.6599 Y-3.0086 Z.0576
N1210 X-.6808 Y-3.039 Z.0557
N1220 X-.7044 Y-3.0675 Z.0537
N1230 X-.7305 Y-3.0936 Z.0518
N1240 X-.759 Y-3.1172 Z.0498
N1250 X-.7894 Y-3.1381 Z.0479
N1260 X-.8217 Y-3.1561 Z.046
N1270 X-.8555 Y-3.171 Z.044
N1280 X-.8905 Y-3.1827 Z.0421
N1290 X-.9265 Y-3.1912 Z.0402
N1300 X-.9631 Y-3.1963 Z.0382
N1310 X-1. Y-3.198 Z.0363
N1320 X-1.0369 Y-3.1963 Z.0344
N1330 X-1.0735 Y-3.1912 Z.0324
N1340 X-1.1095 Y-3.1827 Z.0305
N1350 X-1.1445 Y-3.171 Z.0286
N1360 X-1.1783 Y-3.1561 Z.0266
N1370 X-1.2106 Y-3.1381 Z.0247
N1380 X-1.241 Y-3.1172 Z.0228
N1390 X-1.2695 Y-3.0936 Z.0208
N1400 X-1.2956 Y-3.0675 Z.0189
N1410 X-1.3192 Y-3.039 Z.0169
N1420 X-1.3401 Y-3.0086 Z.015
N1430 X-1.3581 Y-2.9763 Z.0131
N1440 X-1.373 Y-2.9425 Z.0111
N1450 X-1.3847 Y-2.9075 Z.0092
N1460 X-1.3932 Y-2.8715 Z.0073
N1470 X-1.3983 Y-2.8349 Z.0053
N1480 X-1.4 Y-2.798 Z.0034
N1490 X-1.3983 Y-2.7611 Z.0015
N1500 X-1.3932 Y-2.7245 Z-.0005
N1510 X-1.3847 Y-2.6885 Z-.0024
N1520 X-1.373 Y-2.6535 Z-.0044
N1530 X-1.3581 Y-2.6197 Z-.0063
N1540 X-1.3401 Y-2.5874 Z-.0082
N1550 X-1.3192 Y-2.557 Z-.0102
N1560 X-1.2956 Y-2.5285 Z-.0121
N1570 X-1.2695 Y-2.5024 Z-.0141
N1580 X-1.241 Y-2.4788 Z-.016
N1590 X-1.2106 Y-2.4579 Z-.018
N1600 X-1.1783 Y-2.4399 Z-.0199
N1610 X-1.1445 Y-2.425 Z-.0218
N1620 X-1.1095 Y-2.4133 Z-.0238
N1630 X-1.0735 Y-2.4048 Z-.0257
N1640 X-1.0369 Y-2.3997 Z-.0277
N1650 X-1. Y-2.398 Z-.0296
N1660 X-.9796 Y-2.3985 Z-.0307
N1670 X-.9592 Y-2.4001 Z-.0317
N1680 X-.9229 Y-2.4055 Z-.0336
N1690 X-.8872 Y-2.4142 Z-.0355
N1700 X-.8525 Y-2.4262 Z-.0375
N1710 X-.8191 Y-2.4413 Z-.0394
N1720 X-.7872 Y-2.4593 Z-.0413
N1730 X-.757 Y-2.4803 Z-.0432
N1740 X-.7289 Y-2.5039 Z-.0452
N1750 X-.7031 Y-2.53 Z-.0471
N1760 X-.6798 Y-2.5583 Z-.049
N1770 X-.6592 Y-2.5887 Z-.0509
N1780 X-.6414 Y-2.6208 Z-.0529
N1790 X-.6267 Y-2.6544 Z-.0548
N1800 X-.6151 Y-2.6892 Z-.0567
N1810 X-.6067 Y-2.725 Z-.0587
N1820 X-.6017 Y-2.7613 Z-.0606
N1830 X-.6 Y-2.798 Z-.0625
N1840 X-1.
N1850 G2 X-1.1064 Y-2.75 R1.125
N1860 G1 X-1.199
N1870 G3 X-1. Y-2.8284 R3.
N1880 G1 Y-2.798
N1890 X-1.0145 Y-2.8079
N1900 X-1.0387 Y-2.7984
N1910 X-1.0628 Y-2.7886
N1920 X-1.0868 Y-2.7784
N1930 X-1.1106 Y-2.7677
N1940 X-1.098 Y-2.7156
N1950 X-1.0858 Y-2.6668
N1960 X-1.0742 Y-2.6213
N1970 X-1.063 Y-2.5787
N1980 X-1.0523 Y-2.5388
N1990 X-1.0421 Y-2.5015
N2000 X-1.0417 Y-2.5
N2010 X-2.0767
N2020 G3 X-.75 Y-3.1623 R3.25
N2030 G1 Y-2.6104
N2040 G2 X-1.0417 Y-2.5 R.875
N2050 G1 X-.966 Y-2.25
N2060 X-2.216
N2070 G2 X-2.5712 Y-2.3747 R.625
N2080 G3 X-.5 Y-3.4641 R3.5
N2090 G1 Y-2.375
N2100 X-.591
N2110 G2 X-.966 Y-2.25 R.625
N2120 G1 Z.1375 F6.42
N2130 G0 Z.1875
N2140 X-.9592 Y-2.4001
N2150 Z.1375
N2160 G1 Z.0375
N2170 X-.9229 Y-2.4055 Z.0356 F12.
N2180 X-.8872 Y-2.4142 Z.0336
N2190 X-.8525 Y-2.4262 Z.0317
N2200 X-.8191 Y-2.4413 Z.0298
N2210 X-.7872 Y-2.4593 Z.0279
N2220 X-.757 Y-2.4803 Z.026
N2230 X-.7289 Y-2.5039 Z.024
N2240 X-.7031 Y-2.53 Z.0221
N2250 X-.6798 Y-2.5583 Z.0202
N2260 X-.6592 Y-2.5887 Z.0182
N2270 X-.6414 Y-2.6208 Z.0163
N2280 X-.6267 Y-2.6544 Z.0144
N2290 X-.6151 Y-2.6892 Z.0125
N2300 X-.6067 Y-2.725 Z.0106
N2310 X-.6017 Y-2.7613 Z.0086
N2320 X-.6 Y-2.798 Z.0067
N2330 X-.6017 Y-2.8349 Z.0048
N2340 X-.6068 Y-2.8715 Z.0028
N2350 X-.6153 Y-2.9075 Z.0009
N2360 X-.627 Y-2.9425 Z-.001
N2370 X-.6419 Y-2.9763 Z-.003
N2380 X-.6599 Y-3.0086 Z-.0049
N2390 X-.6808 Y-3.039 Z-.0068
N2400 X-.7044 Y-3.0675 Z-.0088
N2410 X-.7305 Y-3.0936 Z-.0107
N2420 X-.759 Y-3.1172 Z-.0127
N2430 X-.7894 Y-3.1381 Z-.0146
N2440 X-.8217 Y-3.1561 Z-.0165
N2450 X-.8555 Y-3.171 Z-.0185
N2460 X-.8905 Y-3.1827 Z-.0204
N2470 X-.9265 Y-3.1912 Z-.0223
N2480 X-.9631 Y-3.1963 Z-.0243
N2490 X-1. Y-3.198 Z-.0262
N2500 X-1.0369 Y-3.1963 Z-.0281
N2510 X-1.0735 Y-3.1912 Z-.0301
N2520 X-1.1095 Y-3.1827 Z-.032
N2530 X-1.1445 Y-3.171 Z-.0339
N2540 X-1.1783 Y-3.1561 Z-.0359
N2550 X-1.2106 Y-3.1381 Z-.0378
N2560 X-1.241 Y-3.1172 Z-.0397
N2570 X-1.2695 Y-3.0936 Z-.0417
N2580 X-1.2956 Y-3.0675 Z-.0436
N2590 X-1.3192 Y-3.039 Z-.0456
N2600 X-1.3401 Y-3.0086 Z-.0475
N2610 X-1.3581 Y-2.9763 Z-.0494
N2620 X-1.373 Y-2.9425 Z-.0514
N2630 X-1.3847 Y-2.9075 Z-.0533
N2640 X-1.3932 Y-2.8715 Z-.0552
N2650 X-1.3983 Y-2.8349 Z-.0572
N2660 X-1.4 Y-2.798 Z-.0591
N2670 X-1.3983 Y-2.7611 Z-.061
N2680 X-1.3932 Y-2.7245 Z-.063
N2690 X-1.3847 Y-2.6885 Z-.0649
N2700 X-1.373 Y-2.6535 Z-.0669
N2710 X-1.3581 Y-2.6197 Z-.0688
N2720 X-1.3401 Y-2.5874 Z-.0707
N2730 X-1.3192 Y-2.557 Z-.0727
N2740 X-1.2956 Y-2.5285 Z-.0746
N2750 X-1.2695 Y-2.5024 Z-.0766
N2760 X-1.241 Y-2.4788 Z-.0785
N2770 X-1.2106 Y-2.4579 Z-.0805
N2780 X-1.1783 Y-2.4399 Z-.0824
N2790 X-1.1445 Y-2.425 Z-.0843
N2800 X-1.1095 Y-2.4133 Z-.0863
N2810 X-1.0735 Y-2.4048 Z-.0882
N2820 X-1.0369 Y-2.3997 Z-.0902
N2830 X-1. Y-2.398 Z-.0921
N2840 X-.9796 Y-2.3985 Z-.0932
N2850 X-.9592 Y-2.4001 Z-.0942
N2860 X-.9229 Y-2.4055 Z-.0961
N2870 X-.8872 Y-2.4142 Z-.098
N2880 X-.8525 Y-2.4262 Z-.1
N2890 X-.8191 Y-2.4413 Z-.1019
N2900 X-.7872 Y-2.4593 Z-.1038
N2910 X-.757 Y-2.4803 Z-.1058
N2920 X-.7289 Y-2.5039 Z-.1077
N2930 X-.7031 Y-2.53 Z-.1096
N2940 X-.6798 Y-2.5583 Z-.1115
N2950 X-.6592 Y-2.5887 Z-.1135
N2960 X-.6414 Y-2.6208 Z-.1154
N2970 X-.6267 Y-2.6544 Z-.1173
N2980 X-.6151 Y-2.6892 Z-.1192
N2990 X-.6067 Y-2.725 Z-.1212
N3000 X-.6017 Y-2.7613 Z-.1231
N3010 X-.6 Y-2.798 Z-.125
N3020 X-1.
N3030 G2 X-1.1064 Y-2.75 R1.125
N3040 G1 X-1.199
N3050 G3 X-1. Y-2.8284 R3.
N3060 G1 Y-2.798
N3070 X-1.0145 Y-2.8079
N3080 X-1.0387 Y-2.7984
N3090 X-1.0628 Y-2.7886
N3100 X-1.0868 Y-2.7784
N3110 X-1.1106 Y-2.7677
N3120 X-1.098 Y-2.7156
N3130 X-1.0858 Y-2.6668
N3140 X-1.0742 Y-2.6213
N3150 X-1.063 Y-2.5787
N3160 X-1.0523 Y-2.5388
N3170 X-1.0421 Y-2.5015
N3180 X-1.0417 Y-2.5
N3190 X-2.0767
N3200 G3 X-.75 Y-3.1623 R3.25
N3210 G1 Y-2.6104
N3220 G2 X-1.0417 Y-2.5 R.875
N3230 G1 X-.966 Y-2.25
N3240 X-2.216
N3250 G2 X-2.5712 Y-2.3747 R.625
N3260 G3 X-.5 Y-3.4641 R3.5
N3270 G1 Y-2.375
N3280 X-.591
N3290 G2 X-.966 Y-2.25 R.625
N3300 G1 Z.075 F6.42
N3310 G0 Z.125
N3320 Z.25
N3330 X-.559 Y-.5
N3340 Z.2
N3350 G1 Z-.0625
N3360 X-3.4641 F12.
N3370 G3 X-3.4187 Y-.75 R3.5
N3380 G1 X-2.966
N3390 G2 X-2.591 Y-.625 R.625
N3400 X-2.216 Y-.75 R.625
N3410 G1 X-.966
N3420 G2 X-.591 Y-.625 R.625
N3430 G1 X-.5
N3440 Y-.559
N3450 G2 X-.559 Y-.5 R.75
N3460 G1 Z-.125 F6.42
N3470 X-3.4641 F12.
N3480 G3 X-3.4187 Y-.75 R3.5
N3490 G1 X-2.966
N3500 G2 X-2.591 Y-.625 R.625
N3510 X-2.216 Y-.75 R.625
N3520 G1 X-.966
N3530 G2 X-.591 Y-.625 R.625
N3540 G1 X-.5
N3550 Y-.559
N3560 G2 X-.559 Y-.5 R.75
N3570 G1 Z.075 F6.42
N3580 G0 Z.25
N3590 X0. Y-4.25
N3600 Z.2
N3610 G1 Z-.0827
N3620 G2 X-4.25 Y0. R4.25 F12.
N3630 X0. Y4.25 R4.25
N3640 X4.25 Y0. R4.25
N3650 X0. Y-4.25 R4.25
N3660 G1 Z-.1653 F6.42
N3670 G2 X-4.25 Y0. R4.25 F12.
N3680 X0. Y4.25 R4.25
N3690 X4.25 Y0. R4.25
N3700 X0. Y-4.25 R4.25
N3710 G1 Z-.248 F6.42
N3720 G2 X-4.25 Y0. R4.25 F12.
N3730 X0. Y4.25 R4.25
N3740 X4.25 Y0. R4.25
N3750 X0. Y-4.25 R4.25
N3760 G1 Z-.048 F6.42
N3770 G0 Z.25
N3780 M5
N3790 M9
A0. N3800 T0 M6
N3810 M30
%%
