%
O0000(ROTPLATE)
(DATE=DD-MM-YY - 22-03-14 TIME=HH:MM - 13:34)
(MCX FILE - C:\USERS\BOYDLAB\DOCUMENTS\GITHUB\MAVRIC_HARDWARE\ARM\ARM DESIGN 2013-2014\MASTERCAM\ROTPLATE1.MCX-7)
(NC FILE - C:\USERS\BOYDLAB\DOCUMENTS\GITHUB\MAVRIC_HARDWARE\ARM\ARM DESIGN 2013-2014\MASTERCAM\ROTPLATE.NC)
(MATERIAL - ALUMINUM INCH - 2024)
( T1 |  1/4 CENTERDRILL | H1 )
( T2 |  NO. 7 DRILL | H2 )
( T3 |  NO. 32 DRILL | H3 )
( T4 |  1/4 FLAT ENDMILL | H4 )
( T5 |  1/2 FLAT ENDMILL | H5 )
N100 G20
N102 G0 G17 G40 G49 G80 G90
N104 T1 M6
N106 G0 G90 G54 X-2.591 Y-1.25 A0. S1069 M3
N108 G43 H1 Z.1
N110 G99 G81 Z-.03 R.1 F2.
N112 Y-1.75
N114 X-.591
N116 Y-1.25
N118 X-3.3701 Y0.
N120 X-.875 Y2.
N122 X0.
N124 X.875
N126 X1.1049 Y-.6038
N128 X1.606 Y-1.1049
N130 X1.1049 Y-1.606
N132 X.6038 Y-1.1049
N134 X0. Y-3.3701
N136 X3.3701 Y0.
N138 X0. Y3.3701
N140 G80
N142 M5
N144 G91 G28 Z0.
N146 A0.
N148 M01
N150 T2 M6
N152 G0 G90 G54 X-2.591 Y-1.25 A0. S3000 M3
N154 G43 H2 Z.1 M8
N156 G99 G83 Z-.3204 R.1 Q.1 F7.
N158 Y-1.75
N160 X-.591
N162 Y-1.25
N164 X-3.3701 Y0.
N166 X-.875 Y2.
N168 X0.
N170 X.875
N172 X0. Y-3.3701
N174 X3.3701 Y0.
N176 X0. Y3.3701
N178 G80
N180 M5
N182 G91 G28 Z0. M9
N184 A0.
N186 M01
N188 T3 M6
N190 G0 G90 G54 X1.1049 Y-.6038 A0. S2305 M3
N192 G43 H3 Z.1 M8
N194 G99 G83 Z-.2948 R.1 Q.1 F2.
N196 X1.606 Y-1.1049
N198 X1.1049 Y-1.606
N200 X.6038 Y-1.1049
N202 G80
N204 M5
N206 G91 G28 Z0. M9
N208 A0.
N210 M01
N212 T4 M6
N214 G0 G90 X0. Y0. A0. S3000 M3
N216 G43 H4 Z.25 M8
N218 Z.1
N220 G1 Z0. F6.42
N222 G3 X.0625 Y-.0625 I.0625 J0. F6.
N224 X.125 Y0. I0. J.0625
N226 G1 X.1235 Y.0196 Z-.002
N228 X.1189 Y.0386 Z-.004
N230 X.1114 Y.0567 Z-.006
N232 X.1011 Y.0735 Z-.008
N234 X.0884 Y.0884 Z-.01
N236 X.0735 Y.1011 Z-.012
N238 X.0567 Y.1114 Z-.014
N240 X.0386 Y.1189 Z-.016
N242 X.0196 Y.1235 Z-.018
N244 X0. Y.125 Z-.02
N246 X-.0196 Y.1235 Z-.022
N248 X-.0386 Y.1189 Z-.024
N250 X-.0567 Y.1114 Z-.026
N252 X-.0735 Y.1011 Z-.028
N254 X-.0884 Y.0884 Z-.03
N256 X-.1011 Y.0735 Z-.032
N258 X-.1114 Y.0567 Z-.034
N260 X-.1189 Y.0386 Z-.036
N262 X-.1235 Y.0196 Z-.038
N264 X-.125 Y0. Z-.04
N266 X-.1235 Y-.0196 Z-.042
N268 X-.1189 Y-.0386 Z-.044
N270 X-.1114 Y-.0567 Z-.046
N272 X-.1011 Y-.0735 Z-.048
N274 X-.0884 Y-.0884 Z-.05
N276 X-.0735 Y-.1011 Z-.052
N278 X-.0567 Y-.1114 Z-.054
N280 X-.0386 Y-.1189 Z-.056
N282 X-.0196 Y-.1235 Z-.058
N284 X0. Y-.125 Z-.06
N286 X.0196 Y-.1235 Z-.062
N288 X.0386 Y-.1189 Z-.064
N290 X.0567 Y-.1114 Z-.066
N292 X.0735 Y-.1011 Z-.068
N294 X.0884 Y-.0884 Z-.07
N296 X.1011 Y-.0735 Z-.072
N298 X.1114 Y-.0567 Z-.074
N300 X.1189 Y-.0386 Z-.076
N302 X.1235 Y-.0196 Z-.078
N304 X.125 Y0. Z-.08
N306 X.1235 Y.0196 Z-.082
N308 X.1189 Y.0386 Z-.084
N310 X.1114 Y.0567 Z-.086
N312 X.1011 Y.0735 Z-.088
N314 X.0884 Y.0884 Z-.09
N316 X.0735 Y.1011 Z-.092
N318 X.0567 Y.1114 Z-.094
N320 X.0386 Y.1189 Z-.096
N322 X.0196 Y.1235 Z-.098
N324 X0. Y.125 Z-.1
N326 X-.0196 Y.1235 Z-.102
N328 X-.0386 Y.1189 Z-.104
N330 X-.0567 Y.1114 Z-.106
N332 X-.0735 Y.1011 Z-.108
N334 X-.0884 Y.0884 Z-.11
N336 X-.1011 Y.0735 Z-.112
N338 X-.1114 Y.0567 Z-.114
N340 X-.1189 Y.0386 Z-.116
N342 X-.1235 Y.0196 Z-.118
N344 X-.125 Y0. Z-.12
N346 X-.1235 Y-.0196 Z-.122
N348 X-.1189 Y-.0386 Z-.124
N350 X-.1114 Y-.0567 Z-.126
N352 X-.1011 Y-.0735 Z-.128
N354 X-.0884 Y-.0884 Z-.13
N356 X-.0735 Y-.1011 Z-.132
N358 X-.0567 Y-.1114 Z-.134
N360 X-.0386 Y-.1189 Z-.136
N362 X-.0196 Y-.1235 Z-.138
N364 X0. Y-.125 Z-.14
N366 X.0196 Y-.1235 Z-.142
N368 X.0386 Y-.1189 Z-.144
N370 X.0567 Y-.1114 Z-.146
N372 X.0735 Y-.1011 Z-.148
N374 X.0884 Y-.0884 Z-.15
N376 X.1011 Y-.0735 Z-.152
N378 X.1114 Y-.0567 Z-.154
N380 X.1189 Y-.0386 Z-.156
N382 X.1235 Y-.0196 Z-.158
N384 X.125 Y0. Z-.16
N386 X.1235 Y.0196 Z-.162
N388 X.1189 Y.0386 Z-.164
N390 X.1114 Y.0567 Z-.166
N392 X.1011 Y.0735 Z-.168
N394 X.0884 Y.0884 Z-.17
N396 X.0735 Y.1011 Z-.172
N398 X.0567 Y.1114 Z-.174
N400 X.0386 Y.1189 Z-.176
N402 X.0196 Y.1235 Z-.178
N404 X0. Y.125 Z-.18
N406 X-.0196 Y.1235 Z-.182
N408 X-.0386 Y.1189 Z-.184
N410 X-.0567 Y.1114 Z-.186
N412 X-.0735 Y.1011 Z-.188
N414 X-.0884 Y.0884 Z-.19
N416 X-.1011 Y.0735 Z-.192
N418 X-.1114 Y.0567 Z-.194
N420 X-.1189 Y.0386 Z-.196
N422 X-.1235 Y.0196 Z-.198
N424 X-.125 Y0. Z-.2
N426 X-.1235 Y-.0196 Z-.202
N428 X-.1189 Y-.0386 Z-.204
N430 X-.1114 Y-.0567 Z-.206
N432 X-.1011 Y-.0735 Z-.208
N434 X-.0884 Y-.0884 Z-.21
N436 X-.0735 Y-.1011 Z-.212
N438 X-.0567 Y-.1114 Z-.214
N440 X-.0386 Y-.1189 Z-.216
N442 X-.0196 Y-.1235 Z-.218
N444 X0. Y-.125 Z-.22
N446 X.0196 Y-.1235 Z-.222
N448 X.0386 Y-.1189 Z-.224
N450 X.0567 Y-.1114 Z-.226
N452 X.0735 Y-.1011 Z-.228
N454 X.0884 Y-.0884 Z-.23
N456 X.1011 Y-.0735 Z-.232
N458 X.1114 Y-.0567 Z-.234
N460 X.1189 Y-.0386 Z-.236
N462 X.1235 Y-.0196 Z-.238
N464 X.125 Y0. Z-.24
N466 X.1235 Y.0196 Z-.242
N468 X.1189 Y.0386 Z-.244
N470 X.1114 Y.0567 Z-.246
N472 X.1011 Y.0735 Z-.248
N474 X.0884 Y.0884 Z-.25
N476 X.0735 Y.1011 Z-.252
N478 X.0567 Y.1114 Z-.254
N480 X.0386 Y.1189 Z-.256
N482 X.0196 Y.1235 Z-.258
N484 X0. Y.125 Z-.26
N486 G3 X-.125 Y0. I0. J-.125 F3.6
N488 X0. Y-.125 I.125 J0.
N490 X.125 Y0. I0. J.125
N492 X0. Y.125 I-.125 J0.
N494 X-.0625 Y.0625 I0. J-.0625
N496 X0. Y0. I.0625 J0.
N498 G0 Z.25
N500 X1.1049 Y-1.1049
N502 Z.1
N504 G1 Z0. F6.42
N506 G3 X1.1924 Y-1.1924 I.0875 J0. F6.
N508 X1.2799 Y-1.1049 I0. J.0875
N510 G1 X1.2784 Y-1.0821 Z-.0017
N512 X1.2739 Y-1.0596 Z-.0033
N514 X1.2666 Y-1.0379 Z-.005
N516 X1.2565 Y-1.0174 Z-.0067
N518 X1.2437 Y-.9984 Z-.0083
N520 X1.2286 Y-.9812 Z-.01
N522 X1.2114 Y-.9661 Z-.0117
N524 X1.1924 Y-.9533 Z-.0133
N526 X1.1719 Y-.9432 Z-.015
N528 X1.1502 Y-.9359 Z-.0167
N530 X1.1277 Y-.9314 Z-.0183
N532 X1.1049 Y-.9299 Z-.02
N534 X1.0821 Y-.9314 Z-.0217
N536 X1.0596 Y-.9359 Z-.0233
N538 X1.0379 Y-.9432 Z-.025
N540 X1.0174 Y-.9533 Z-.0267
N542 X.9984 Y-.9661 Z-.0283
N544 X.9812 Y-.9812 Z-.03
N546 X.9661 Y-.9984 Z-.0317
N548 X.9533 Y-1.0174 Z-.0333
N550 X.9432 Y-1.0379 Z-.035
N552 X.9359 Y-1.0596 Z-.0367
N554 X.9314 Y-1.0821 Z-.0383
N556 X.9299 Y-1.1049 Z-.04
N558 X.9314 Y-1.1277 Z-.0417
N560 X.9359 Y-1.1502 Z-.0433
N562 X.9432 Y-1.1719 Z-.045
N564 X.9533 Y-1.1924 Z-.0467
N566 X.9661 Y-1.2114 Z-.0483
N568 X.9812 Y-1.2286 Z-.05
N570 X.9984 Y-1.2437 Z-.0517
N572 X1.0174 Y-1.2565 Z-.0533
N574 X1.0379 Y-1.2666 Z-.055
N576 X1.0596 Y-1.2739 Z-.0567
N578 X1.0821 Y-1.2784 Z-.0583
N580 X1.1049 Y-1.2799 Z-.06
N582 X1.1277 Y-1.2784 Z-.0617
N584 X1.1502 Y-1.2739 Z-.0633
N586 X1.1719 Y-1.2666 Z-.065
N588 X1.1924 Y-1.2565 Z-.0667
N590 X1.2114 Y-1.2437 Z-.0683
N592 X1.2286 Y-1.2286 Z-.07
N594 X1.2437 Y-1.2114 Z-.0717
N596 X1.2565 Y-1.1924 Z-.0733
N598 X1.2666 Y-1.1719 Z-.075
N600 X1.2739 Y-1.1502 Z-.0767
N602 X1.2784 Y-1.1277 Z-.0783
N604 X1.2799 Y-1.1049 Z-.08
N606 X1.2784 Y-1.0821 Z-.0817
N608 X1.2739 Y-1.0596 Z-.0833
N610 X1.2666 Y-1.0379 Z-.085
N612 X1.2565 Y-1.0174 Z-.0867
N614 X1.2437 Y-.9984 Z-.0883
N616 X1.2286 Y-.9812 Z-.09
N618 X1.2114 Y-.9661 Z-.0917
N620 X1.1924 Y-.9533 Z-.0933
N622 X1.1719 Y-.9432 Z-.095
N624 X1.1502 Y-.9359 Z-.0967
N626 X1.1277 Y-.9314 Z-.0983
N628 X1.1049 Y-.9299 Z-.1
N630 X1.0821 Y-.9314 Z-.1017
N632 X1.0596 Y-.9359 Z-.1033
N634 X1.0379 Y-.9432 Z-.105
N636 X1.0174 Y-.9533 Z-.1067
N638 X.9984 Y-.9661 Z-.1083
N640 X.9812 Y-.9812 Z-.11
N642 X.9661 Y-.9984 Z-.1117
N644 X.9533 Y-1.0174 Z-.1133
N646 X.9432 Y-1.0379 Z-.115
N648 X.9359 Y-1.0596 Z-.1167
N650 X.9314 Y-1.0821 Z-.1183
N652 X.9299 Y-1.1049 Z-.12
N654 X.9314 Y-1.1277 Z-.1217
N656 X.9359 Y-1.1502 Z-.1233
N658 X.9432 Y-1.1719 Z-.125
N660 X.9533 Y-1.1924 Z-.1267
N662 X.9661 Y-1.2114 Z-.1283
N664 X.9812 Y-1.2286 Z-.13
N666 X.9984 Y-1.2437 Z-.1317
N668 X1.0174 Y-1.2565 Z-.1333
N670 X1.0379 Y-1.2666 Z-.135
N672 X1.0596 Y-1.2739 Z-.1367
N674 X1.0821 Y-1.2784 Z-.1383
N676 X1.1049 Y-1.2799 Z-.14
N678 X1.1277 Y-1.2784 Z-.1417
N680 X1.1502 Y-1.2739 Z-.1433
N682 X1.1719 Y-1.2666 Z-.145
N684 X1.1924 Y-1.2565 Z-.1467
N686 X1.2114 Y-1.2437 Z-.1483
N688 X1.2286 Y-1.2286 Z-.15
N690 X1.2437 Y-1.2114 Z-.1517
N692 X1.2565 Y-1.1924 Z-.1533
N694 X1.2666 Y-1.1719 Z-.155
N696 X1.2739 Y-1.1502 Z-.1567
N698 X1.2784 Y-1.1277 Z-.1583
N700 X1.2799 Y-1.1049 Z-.16
N702 X1.2784 Y-1.0821 Z-.1617
N704 X1.2739 Y-1.0596 Z-.1633
N706 X1.2666 Y-1.0379 Z-.165
N708 X1.2565 Y-1.0174 Z-.1667
N710 X1.2437 Y-.9984 Z-.1683
N712 X1.2286 Y-.9812 Z-.17
N714 X1.2114 Y-.9661 Z-.1717
N716 X1.1924 Y-.9533 Z-.1733
N718 X1.1719 Y-.9432 Z-.175
N720 X1.1502 Y-.9359 Z-.1767
N722 X1.1277 Y-.9314 Z-.1783
N724 X1.1049 Y-.9299 Z-.18
N726 X1.0821 Y-.9314 Z-.1817
N728 X1.0596 Y-.9359 Z-.1833
N730 X1.0379 Y-.9432 Z-.185
N732 X1.0174 Y-.9533 Z-.1867
N734 X.9984 Y-.9661 Z-.1883
N736 X.9812 Y-.9812 Z-.19
N738 X.9661 Y-.9984 Z-.1917
N740 X.9533 Y-1.0174 Z-.1933
N742 X.9432 Y-1.0379 Z-.195
N744 X.9359 Y-1.0596 Z-.1967
N746 X.9314 Y-1.0821 Z-.1983
N748 X.9299 Y-1.1049 Z-.2
N750 X.9314 Y-1.1277 Z-.2017
N752 X.9359 Y-1.1502 Z-.2033
N754 X.9432 Y-1.1719 Z-.205
N756 X.9533 Y-1.1924 Z-.2067
N758 X.9661 Y-1.2114 Z-.2083
N760 X.9812 Y-1.2286 Z-.21
N762 X.9984 Y-1.2437 Z-.2117
N764 X1.0174 Y-1.2565 Z-.2133
N766 X1.0379 Y-1.2666 Z-.215
N768 X1.0596 Y-1.2739 Z-.2167
N770 X1.0821 Y-1.2784 Z-.2183
N772 X1.1049 Y-1.2799 Z-.22
N774 X1.1277 Y-1.2784 Z-.2217
N776 X1.1502 Y-1.2739 Z-.2233
N778 X1.1719 Y-1.2666 Z-.225
N780 X1.1924 Y-1.2565 Z-.2267
N782 X1.2114 Y-1.2437 Z-.2283
N784 X1.2286 Y-1.2286 Z-.23
N786 X1.2437 Y-1.2114 Z-.2317
N788 X1.2565 Y-1.1924 Z-.2333
N790 X1.2666 Y-1.1719 Z-.235
N792 X1.2739 Y-1.1502 Z-.2367
N794 X1.2784 Y-1.1277 Z-.2383
N796 X1.2799 Y-1.1049 Z-.24
N798 X1.2784 Y-1.0821 Z-.2417
N800 X1.2739 Y-1.0596 Z-.2433
N802 X1.2666 Y-1.0379 Z-.245
N804 X1.2565 Y-1.0174 Z-.2467
N806 X1.2437 Y-.9984 Z-.2483
N808 X1.2286 Y-.9812 Z-.25
N810 X1.2114 Y-.9661 Z-.2517
N812 X1.1924 Y-.9533 Z-.2533
N814 X1.1719 Y-.9432 Z-.255
N816 X1.1502 Y-.9359 Z-.2567
N818 X1.1277 Y-.9314 Z-.2583
N820 X1.1049 Y-.9299 Z-.26
N822 G3 X.9299 Y-1.1049 I0. J-.175 F3.6
N824 X1.1049 Y-1.2799 I.175 J0.
N826 X1.2799 Y-1.1049 I0. J.175
N828 X1.1049 Y-.9299 I-.175 J0.
N830 X1.0174 Y-1.0174 I0. J-.0875
N832 X1.1049 Y-1.1049 I.0875 J0.
N834 G0 Z.25
N836 M5
N838 G91 G28 Z0. M9
N840 A0.
N842 M01
N844 T5 M6
N846 G0 G90 X-2.3202 Y1.798 A0. S2000 M3
N848 G43 H5 Z.25 M8
N850 Z.2
N852 G1 Z.1 F6.42
N854 X-2.2914 Y1.8246 Z.0979 F12.
N856 X-2.2606 Y1.8489 Z.0959
N858 X-2.2279 Y1.8707 Z.0938
N860 X-2.1937 Y1.8899 Z.0918
N862 X-2.158 Y1.9063 Z.0897
N864 X-2.1212 Y1.9199 Z.0876
N866 X-2.0835 Y1.9305 Z.0856
N868 X-2.045 Y1.9382 Z.0835
N870 X-2.006 Y1.9428 Z.0815
N872 X-1.9668 Y1.9443 Z.0794
N874 X-1.9255 Y1.9426 Z.0772
N876 X-1.8845 Y1.9375 Z.0751
N878 X-1.8441 Y1.929 Z.0729
N880 X-1.8045 Y1.9172 Z.0707
N882 X-1.766 Y1.9022 Z.0686
N884 X-1.7289 Y1.8841 Z.0664
N886 X-1.6934 Y1.8629 Z.0643
N888 X-1.6597 Y1.8389 Z.0621
N890 X-1.6282 Y1.8122 Z.0599
N892 X-1.599 Y1.783 Z.0578
N894 X-1.5723 Y1.7515 Z.0556
N896 X-1.5483 Y1.7178 Z.0534
N898 X-1.5271 Y1.6823 Z.0513
N900 X-1.509 Y1.6452 Z.0491
N902 X-1.494 Y1.6067 Z.047
N904 X-1.4822 Y1.5671 Z.0448
N906 X-1.4737 Y1.5267 Z.0426
N908 X-1.4686 Y1.4857 Z.0405
N910 X-1.4669 Y1.4444 Z.0383
N912 X-1.4686 Y1.4031 Z.0361
N914 X-1.4737 Y1.3621 Z.034
N916 X-1.4822 Y1.3217 Z.0318
N918 X-1.494 Y1.2821 Z.0296
N920 X-1.509 Y1.2436 Z.0275
N922 X-1.5271 Y1.2065 Z.0253
N924 X-1.5483 Y1.171 Z.0231
N926 X-1.5723 Y1.1373 Z.021
N928 X-1.599 Y1.1058 Z.0188
N930 X-1.6282 Y1.0766 Z.0166
N932 X-1.6597 Y1.0499 Z.0144
N934 X-1.6934 Y1.0259 Z.0123
N936 X-1.7289 Y1.0047 Z.0101
N938 X-1.766 Y.9866 Z.0079
N940 X-1.8045 Y.9716 Z.0058
N942 X-1.8441 Y.9598 Z.0036
N944 X-1.8845 Y.9513 Z.0014
N946 X-1.9255 Y.9462 Z-.0007
N948 X-1.9668 Y.9445 Z-.0029
N950 X-2.0081 Y.9462 Z-.0051
N952 X-2.0491 Y.9513 Z-.0072
N954 X-2.0895 Y.9598 Z-.0094
N956 X-2.1291 Y.9716 Z-.0116
N958 X-2.1676 Y.9866 Z-.0137
N960 X-2.2047 Y1.0047 Z-.0159
N962 X-2.2402 Y1.0259 Z-.0181
N964 X-2.2739 Y1.0499 Z-.0202
N966 X-2.3054 Y1.0766 Z-.0224
N968 X-2.3346 Y1.1058 Z-.0246
N970 X-2.3613 Y1.1373 Z-.0268
N972 X-2.3853 Y1.171 Z-.0289
N974 X-2.4065 Y1.2065 Z-.0311
N976 X-2.4246 Y1.2436 Z-.0333
N978 X-2.4396 Y1.2821 Z-.0354
N980 X-2.4514 Y1.3217 Z-.0376
N982 X-2.4599 Y1.3621 Z-.0398
N984 X-2.465 Y1.4031 Z-.0419
N986 X-2.4667 Y1.4444 Z-.0441
N988 X-2.4652 Y1.4835 Z-.0461
N990 X-2.4606 Y1.5223 Z-.0482
N992 X-2.453 Y1.5606 Z-.0502
N994 X-2.4425 Y1.5983 Z-.0523
N996 X-2.429 Y1.635 Z-.0543
N998 X-2.4127 Y1.6705 Z-.0564
N1000 X-2.3936 Y1.7047 Z-.0584
N1002 X-2.372 Y1.7372 Z-.0605
N1004 X-2.3479 Y1.768 Z-.0625
N1006 X-2.2035 Y1.6454
N1008 G3 X-2.4495 Y1.25 I2.2035 J-1.6454
N1010 G1 X-2.0749
N1012 G2 X-2.1115 Y1.3985 I.9499 J.3125
N1014 X-2.2035 Y1.6454 I1.2365 J.6015
N1016 G1 X-2.2111 Y1.6032
N1018 X-2.2185 Y1.5572
N1020 X-2.2247 Y1.5113
N1022 X-2.23 Y1.4655
N1024 X-2.2342 Y1.4198
N1026 X-2.2374 Y1.3742
N1028 X-2.229 Y1.3689
N1030 X-2.2248 Y1.3662
N1032 X-2.2207 Y1.3636
N1034 X-2.1582 Y1.3836
N1036 X-2.1014 Y1.4017
N1038 X-2.0495 Y1.4182
N1040 X-1.958 Y1.4471
N1042 X-1.9175 Y1.4599
N1044 X-1.8698 Y1.4747
N1046 G2 X-2. Y2. I.9948 J.5253
N1048 X-1.9687 Y2.2637 I1.125 J0.
N1050 G3 X-2.8284 Y1. I1.9687 J-2.2637
N1052 G1 X-1.6211
N1054 G2 X-1.8698 Y1.4747 I.4961 J.5625
N1056 G1 X-1.6248 Y1.549
N1058 G2 X-1.75 Y2. I.7498 J.451
N1060 X-1.6248 Y2.451 I.875 J0.
N1062 X-1.125 Y2.9375 I.4998 J-.0135
N1064 G1 X-.75
N1066 Y3.1623
N1068 G3 X-3.1623 Y.75 I.75 J-3.1623
N1070 G1 X-.75
N1072 Y1.0625
N1074 X-1.125
N1076 G2 X-1.6248 Y1.549 I0. J.5
N1078 G1 X-1.5781 Y1.5625
N1080 X-1.375
N1082 Y1.625
N1084 G2 X-1.5 Y2. I.5 J.375
N1086 X-1.375 Y2.375 I.625 J0.
N1088 G1 Y2.4375
N1090 G2 X-1.125 Y2.6875 I.25 J0.
N1092 G1 X-.5
N1094 Y3.4641
N1096 G3 X-3.4641 Y.5 I.5 J-3.4641
N1098 G1 X-.559
N1100 G2 X-.5 Y.559 I.559 J-.5
N1102 G1 Y1.3125
N1104 X-1.125
N1106 G2 X-1.375 Y1.5625 I0. J.25
N1108 G1 Z.1375 F6.42
N1110 G0 Z.1875
N1112 X-2.3202 Y1.798
N1114 Z.1375
N1116 G1 Z.0375
N1118 X-2.2914 Y1.8246 Z.0354 F12.
N1120 X-2.2606 Y1.8489 Z.0334
N1122 X-2.2279 Y1.8707 Z.0313
N1124 X-2.1937 Y1.8899 Z.0293
N1126 X-2.158 Y1.9063 Z.0272
N1128 X-2.1212 Y1.9199 Z.0251
N1130 X-2.0835 Y1.9305 Z.0231
N1132 X-2.045 Y1.9382 Z.021
N1134 X-2.006 Y1.9428 Z.019
N1136 X-1.9668 Y1.9443 Z.0169
N1138 X-1.9255 Y1.9426 Z.0147
N1140 X-1.8845 Y1.9375 Z.0126
N1142 X-1.8441 Y1.929 Z.0104
N1144 X-1.8045 Y1.9172 Z.0082
N1146 X-1.766 Y1.9022 Z.0061
N1148 X-1.7289 Y1.8841 Z.0039
N1150 X-1.6934 Y1.8629 Z.0018
N1152 X-1.6597 Y1.8389 Z-.0004
N1154 X-1.6282 Y1.8122 Z-.0026
N1156 X-1.599 Y1.783 Z-.0047
N1158 X-1.5723 Y1.7515 Z-.0069
N1160 X-1.5483 Y1.7178 Z-.0091
N1162 X-1.5271 Y1.6823 Z-.0112
N1164 X-1.509 Y1.6452 Z-.0134
N1166 X-1.494 Y1.6067 Z-.0155
N1168 X-1.4822 Y1.5671 Z-.0177
N1170 X-1.4737 Y1.5267 Z-.0199
N1172 X-1.4686 Y1.4857 Z-.022
N1174 X-1.4669 Y1.4444 Z-.0242
N1176 X-1.4686 Y1.4031 Z-.0264
N1178 X-1.4737 Y1.3621 Z-.0285
N1180 X-1.4822 Y1.3217 Z-.0307
N1182 X-1.494 Y1.2821 Z-.0329
N1184 X-1.509 Y1.2436 Z-.035
N1186 X-1.5271 Y1.2065 Z-.0372
N1188 X-1.5483 Y1.171 Z-.0394
N1190 X-1.5723 Y1.1373 Z-.0415
N1192 X-1.599 Y1.1058 Z-.0437
N1194 X-1.6282 Y1.0766 Z-.0459
N1196 X-1.6597 Y1.0499 Z-.0481
N1198 X-1.6934 Y1.0259 Z-.0502
N1200 X-1.7289 Y1.0047 Z-.0524
N1202 X-1.766 Y.9866 Z-.0546
N1204 X-1.8045 Y.9716 Z-.0567
N1206 X-1.8441 Y.9598 Z-.0589
N1208 X-1.8845 Y.9513 Z-.0611
N1210 X-1.9255 Y.9462 Z-.0632
N1212 X-1.9668 Y.9445 Z-.0654
N1214 X-2.0081 Y.9462 Z-.0676
N1216 X-2.0491 Y.9513 Z-.0697
N1218 X-2.0895 Y.9598 Z-.0719
N1220 X-2.1291 Y.9716 Z-.0741
N1222 X-2.1676 Y.9866 Z-.0762
N1224 X-2.2047 Y1.0047 Z-.0784
N1226 X-2.2402 Y1.0259 Z-.0806
N1228 X-2.2739 Y1.0499 Z-.0827
N1230 X-2.3054 Y1.0766 Z-.0849
N1232 X-2.3346 Y1.1058 Z-.0871
N1234 X-2.3613 Y1.1373 Z-.0893
N1236 X-2.3853 Y1.171 Z-.0914
N1238 X-2.4065 Y1.2065 Z-.0936
N1240 X-2.4246 Y1.2436 Z-.0958
N1242 X-2.4396 Y1.2821 Z-.0979
N1244 X-2.4514 Y1.3217 Z-.1001
N1246 X-2.4599 Y1.3621 Z-.1023
N1248 X-2.465 Y1.4031 Z-.1044
N1250 X-2.4667 Y1.4444 Z-.1066
N1252 X-2.4652 Y1.4835 Z-.1086
N1254 X-2.4606 Y1.5223 Z-.1107
N1256 X-2.453 Y1.5606 Z-.1127
N1258 X-2.4425 Y1.5983 Z-.1148
N1260 X-2.429 Y1.635 Z-.1168
N1262 X-2.4127 Y1.6705 Z-.1189
N1264 X-2.3936 Y1.7047 Z-.1209
N1266 X-2.372 Y1.7372 Z-.123
N1268 X-2.3479 Y1.768 Z-.125
N1270 X-2.2035 Y1.6454
N1272 G3 X-2.4495 Y1.25 I2.2035 J-1.6454
N1274 G1 X-2.0749
N1276 G2 X-2.1115 Y1.3985 I.9499 J.3125
N1278 X-2.2035 Y1.6454 I1.2365 J.6015
N1280 G1 X-2.2111 Y1.6032
N1282 X-2.2185 Y1.5572
N1284 X-2.2247 Y1.5113
N1286 X-2.23 Y1.4655
N1288 X-2.2342 Y1.4198
N1290 X-2.2374 Y1.3742
N1292 X-2.229 Y1.3689
N1294 X-2.2248 Y1.3662
N1296 X-2.2207 Y1.3636
N1298 X-2.1582 Y1.3836
N1300 X-2.1014 Y1.4017
N1302 X-2.0495 Y1.4182
N1304 X-1.958 Y1.4471
N1306 X-1.9175 Y1.4599
N1308 X-1.8698 Y1.4747
N1310 G2 X-2. Y2. I.9948 J.5253
N1312 X-1.9687 Y2.2637 I1.125 J0.
N1314 G3 X-2.8284 Y1. I1.9687 J-2.2637
N1316 G1 X-1.6211
N1318 G2 X-1.8698 Y1.4747 I.4961 J.5625
N1320 G1 X-1.6248 Y1.549
N1322 G2 X-1.75 Y2. I.7498 J.451
N1324 X-1.6248 Y2.451 I.875 J0.
N1326 X-1.125 Y2.9375 I.4998 J-.0135
N1328 G1 X-.75
N1330 Y3.1623
N1332 G3 X-3.1623 Y.75 I.75 J-3.1623
N1334 G1 X-.75
N1336 Y1.0625
N1338 X-1.125
N1340 G2 X-1.6248 Y1.549 I0. J.5
N1342 G1 X-1.5781 Y1.5625
N1344 X-1.375
N1346 Y1.625
N1348 G2 X-1.5 Y2. I.5 J.375
N1350 X-1.375 Y2.375 I.625 J0.
N1352 G1 Y2.4375
N1354 G2 X-1.125 Y2.6875 I.25 J0.
N1356 G1 X-.5
N1358 Y3.4641
N1360 G3 X-3.4641 Y.5 I.5 J-3.4641
N1362 G1 X-.559
N1364 G2 X-.5 Y.559 I.559 J-.5
N1366 G1 Y1.3125
N1368 X-1.125
N1370 G2 X-1.375 Y1.5625 I0. J.25
N1372 G1 Z.075 F6.42
N1374 G0 Z.125
N1376 Z.25
N1378 X2.2859 Y1.4035
N1380 Z.2
N1382 G1 Z.1
N1384 X2.3126 Y1.4356 Z.0978 F12.
N1386 X2.3419 Y1.4653 Z.0956
N1388 X2.3735 Y1.4925 Z.0934
N1390 X2.4074 Y1.517 Z.0912
N1392 X2.4431 Y1.5386 Z.089
N1394 X2.4805 Y1.5571 Z.0869
N1396 X2.5194 Y1.5724 Z.0847
N1398 X2.5593 Y1.5844 Z.0825
N1400 X2.6002 Y1.5931 Z.0803
N1402 X2.6416 Y1.5983 Z.0781
N1404 X2.6833 Y1.6 Z.0759
N1406 X2.7246 Y1.5983 Z.0737
N1408 X2.7656 Y1.5932 Z.0716
N1410 X2.8061 Y1.5847 Z.0694
N1412 X2.8457 Y1.5729 Z.0672
N1414 X2.8842 Y1.5579 Z.0651
N1416 X2.9213 Y1.5398 Z.0629
N1418 X2.9568 Y1.5186 Z.0608
N1420 X2.9904 Y1.4946 Z.0586
N1422 X3.022 Y1.4679 Z.0564
N1424 X3.0512 Y1.4387 Z.0543
N1426 X3.0779 Y1.4071 Z.0521
N1428 X3.1019 Y1.3735 Z.0499
N1430 X3.1231 Y1.338 Z.0478
N1432 X3.1412 Y1.3009 Z.0456
N1434 X3.1562 Y1.2624 Z.0435
N1436 X3.168 Y1.2228 Z.0413
N1438 X3.1765 Y1.1823 Z.0391
N1440 X3.1816 Y1.1413 Z.037
N1442 X3.1833 Y1.1 Z.0348
N1444 X3.1816 Y1.0587 Z.0326
N1446 X3.1765 Y1.0177 Z.0305
N1448 X3.168 Y.9772 Z.0283
N1450 X3.1562 Y.9376 Z.0261
N1452 X3.1412 Y.8991 Z.024
N1454 X3.1231 Y.862 Z.0218
N1456 X3.1019 Y.8265 Z.0196
N1458 X3.0779 Y.7929 Z.0175
N1460 X3.0512 Y.7613 Z.0153
N1462 X3.022 Y.7321 Z.0131
N1464 X2.9904 Y.7054 Z.0109
N1466 X2.9568 Y.6814 Z.0088
N1468 X2.9213 Y.6602 Z.0066
N1470 X2.8842 Y.6421 Z.0044
N1472 X2.8457 Y.6271 Z.0023
N1474 X2.8061 Y.6153 Z.0001
N1476 X2.7656 Y.6068 Z-.0021
N1478 X2.7246 Y.6017 Z-.0042
N1480 X2.6833 Y.6 Z-.0064
N1482 X2.642 Y.6017 Z-.0086
N1484 X2.601 Y.6068 Z-.0107
N1486 X2.5605 Y.6153 Z-.0129
N1488 X2.5209 Y.6271 Z-.0151
N1490 X2.4824 Y.6421 Z-.0172
N1492 X2.4453 Y.6602 Z-.0194
N1494 X2.4098 Y.6814 Z-.0216
N1496 X2.3762 Y.7054 Z-.0237
N1498 X2.3446 Y.7321 Z-.0259
N1500 X2.3154 Y.7613 Z-.0281
N1502 X2.2887 Y.7929 Z-.0303
N1504 X2.2647 Y.8265 Z-.0324
N1506 X2.2435 Y.862 Z-.0346
N1508 X2.2254 Y.8991 Z-.0368
N1510 X2.2104 Y.9376 Z-.0389
N1512 X2.1986 Y.9772 Z-.0411
N1514 X2.1901 Y1.0177 Z-.0433
N1516 X2.185 Y1.0587 Z-.0454
N1518 X2.1833 Y1.1 Z-.0476
N1520 X2.1849 Y1.1407 Z-.0497
N1522 X2.1899 Y1.1811 Z-.0519
N1524 X2.1981 Y1.221 Z-.054
N1526 X2.2096 Y1.2601 Z-.0561
N1528 X2.2242 Y1.2982 Z-.0582
N1530 X2.2419 Y1.3349 Z-.0604
N1532 X2.2624 Y1.37 Z-.0625
N1534 X2.4495 Y1.25
N1536 G3 X2.2035 Y1.6454 I-2.4495 J-1.25
N1538 G2 X2.1115 Y1.3985 I-1.3285 J.3546
N1540 X2.0749 Y1.25 I-.9865 J.164
N1542 G1 X2.4495
N1544 X2.8284 Y1.
N1546 G3 X1.9687 Y2.2637 I-2.8284 J-1.
N1548 G2 X2. Y2. I-1.0937 J-.2637
N1550 X1.8698 Y1.4747 I-1.125 J0.
N1552 X1.6211 Y1. I-.7448 J.0878
N1554 G1 X2.8284
N1556 X3.1623 Y.75
N1558 G3 X.75 Y3.1623 I-3.1623 J-.75
N1560 G1 Y2.9375
N1562 X1.125
N1564 G2 X1.6248 Y2.451 I0. J-.5
N1566 X1.75 Y2. I-.7498 J-.451
N1568 X1.6248 Y1.549 I-.875 J0.
N1570 X1.125 Y1.0625 I-.4998 J.0135
N1572 G1 X.75
N1574 Y.75
N1576 X3.1623
N1578 X3.4641 Y.5
N1580 G3 X.5 Y3.4641 I-3.4641 J-.5
N1582 G1 Y2.6875
N1584 X1.125
N1586 G2 X1.375 Y2.4375 I0. J-.25
N1588 G1 Y2.375
N1590 G2 X1.5 Y2. I-.5 J-.375
N1592 X1.375 Y1.625 I-.625 J0.
N1594 G1 Y1.5625
N1596 G2 X1.125 Y1.3125 I-.25 J0.
N1598 G1 X.5
N1600 Y.559
N1602 G2 X.559 Y.5 I-.5 J-.559
N1604 G1 X3.4641
N1606 Z.1375 F6.42
N1608 G0 Z.1875
N1610 X2.2859 Y1.4035
N1612 Z.1375
N1614 G1 Z.0375
N1616 X2.3126 Y1.4356 Z.0353 F12.
N1618 X2.3419 Y1.4653 Z.0331
N1620 X2.3735 Y1.4925 Z.0309
N1622 X2.4074 Y1.517 Z.0287
N1624 X2.4431 Y1.5386 Z.0265
N1626 X2.4805 Y1.5571 Z.0244
N1628 X2.5194 Y1.5724 Z.0222
N1630 X2.5593 Y1.5844 Z.02
N1632 X2.6002 Y1.5931 Z.0178
N1634 X2.6416 Y1.5983 Z.0156
N1636 X2.6833 Y1.6 Z.0134
N1638 X2.7246 Y1.5983 Z.0112
N1640 X2.7656 Y1.5932 Z.0091
N1642 X2.8061 Y1.5847 Z.0069
N1644 X2.8457 Y1.5729 Z.0047
N1646 X2.8842 Y1.5579 Z.0026
N1648 X2.9213 Y1.5398 Z.0004
N1650 X2.9568 Y1.5186 Z-.0017
N1652 X2.9904 Y1.4946 Z-.0039
N1654 X3.022 Y1.4679 Z-.0061
N1656 X3.0512 Y1.4387 Z-.0082
N1658 X3.0779 Y1.4071 Z-.0104
N1660 X3.1019 Y1.3735 Z-.0126
N1662 X3.1231 Y1.338 Z-.0147
N1664 X3.1412 Y1.3009 Z-.0169
N1666 X3.1562 Y1.2624 Z-.019
N1668 X3.168 Y1.2228 Z-.0212
N1670 X3.1765 Y1.1823 Z-.0234
N1672 X3.1816 Y1.1413 Z-.0255
N1674 X3.1833 Y1.1 Z-.0277
N1676 X3.1816 Y1.0587 Z-.0299
N1678 X3.1765 Y1.0177 Z-.032
N1680 X3.168 Y.9772 Z-.0342
N1682 X3.1562 Y.9376 Z-.0364
N1684 X3.1412 Y.8991 Z-.0385
N1686 X3.1231 Y.862 Z-.0407
N1688 X3.1019 Y.8265 Z-.0429
N1690 X3.0779 Y.7929 Z-.045
N1692 X3.0512 Y.7613 Z-.0472
N1694 X3.022 Y.7321 Z-.0494
N1696 X2.9904 Y.7054 Z-.0516
N1698 X2.9568 Y.6814 Z-.0537
N1700 X2.9213 Y.6602 Z-.0559
N1702 X2.8842 Y.6421 Z-.0581
N1704 X2.8457 Y.6271 Z-.0602
N1706 X2.8061 Y.6153 Z-.0624
N1708 X2.7656 Y.6068 Z-.0646
N1710 X2.7246 Y.6017 Z-.0667
N1712 X2.6833 Y.6 Z-.0689
N1714 X2.642 Y.6017 Z-.0711
N1716 X2.601 Y.6068 Z-.0732
N1718 X2.5605 Y.6153 Z-.0754
N1720 X2.5209 Y.6271 Z-.0776
N1722 X2.4824 Y.6421 Z-.0797
N1724 X2.4453 Y.6602 Z-.0819
N1726 X2.4098 Y.6814 Z-.0841
N1728 X2.3762 Y.7054 Z-.0862
N1730 X2.3446 Y.7321 Z-.0884
N1732 X2.3154 Y.7613 Z-.0906
N1734 X2.2887 Y.7929 Z-.0928
N1736 X2.2647 Y.8265 Z-.0949
N1738 X2.2435 Y.862 Z-.0971
N1740 X2.2254 Y.8991 Z-.0993
N1742 X2.2104 Y.9376 Z-.1014
N1744 X2.1986 Y.9772 Z-.1036
N1746 X2.1901 Y1.0177 Z-.1058
N1748 X2.185 Y1.0587 Z-.1079
N1750 X2.1833 Y1.1 Z-.1101
N1752 X2.1849 Y1.1407 Z-.1122
N1754 X2.1899 Y1.1811 Z-.1144
N1756 X2.1981 Y1.221 Z-.1165
N1758 X2.2096 Y1.2601 Z-.1186
N1760 X2.2242 Y1.2982 Z-.1207
N1762 X2.2419 Y1.3349 Z-.1229
N1764 X2.2624 Y1.37 Z-.125
N1766 X2.4495 Y1.25
N1768 G3 X2.2035 Y1.6454 I-2.4495 J-1.25
N1770 G2 X2.1115 Y1.3985 I-1.3285 J.3546
N1772 X2.0749 Y1.25 I-.9865 J.164
N1774 G1 X2.4495
N1776 X2.8284 Y1.
N1778 G3 X1.9687 Y2.2637 I-2.8284 J-1.
N1780 G2 X2. Y2. I-1.0937 J-.2637
N1782 X1.8698 Y1.4747 I-1.125 J0.
N1784 X1.6211 Y1. I-.7448 J.0878
N1786 G1 X2.8284
N1788 X3.1623 Y.75
N1790 G3 X.75 Y3.1623 I-3.1623 J-.75
N1792 G1 Y2.9375
N1794 X1.125
N1796 G2 X1.6248 Y2.451 I0. J-.5
N1798 X1.75 Y2. I-.7498 J-.451
N1800 X1.6248 Y1.549 I-.875 J0.
N1802 X1.125 Y1.0625 I-.4998 J.0135
N1804 G1 X.75
N1806 Y.75
N1808 X3.1623
N1810 X3.4641 Y.5
N1812 G3 X.5 Y3.4641 I-3.4641 J-.5
N1814 G1 Y2.6875
N1816 X1.125
N1818 G2 X1.375 Y2.4375 I0. J-.25
N1820 G1 Y2.375
N1822 G2 X1.5 Y2. I-.5 J-.375
N1824 X1.375 Y1.625 I-.625 J0.
N1826 G1 Y1.5625
N1828 G2 X1.125 Y1.3125 I-.25 J0.
N1830 G1 X.5
N1832 Y.559
N1834 G2 X.559 Y.5 I-.5 J-.559
N1836 G1 X3.4641
N1838 Z.075 F6.42
N1840 G0 Z.125
N1842 Z.25
N1844 X1.3002 Y-2.3271
N1846 Z.2
N1848 G1 Z.1
N1850 X1.3365 Y-2.3401 Z.098 F12.
N1852 X1.3715 Y-2.3564 Z.096
N1854 X1.4048 Y-2.3758 Z.0939
N1856 X1.4363 Y-2.3981 Z.0919
N1858 X1.4656 Y-2.4232 Z.0899
N1860 X1.4925 Y-2.4509 Z.0879
N1862 X1.5168 Y-2.4809 Z.0858
N1864 X1.5383 Y-2.5129 Z.0838
N1866 X1.5568 Y-2.5468 Z.0818
N1868 X1.5721 Y-2.5822 Z.0798
N1870 X1.5841 Y-2.6188 Z.0778
N1872 X1.5928 Y-2.6564 Z.0757
N1874 X1.5981 Y-2.6947 Z.0737
N1876 X1.5998 Y-2.7332 Z.0717
N1878 X1.598 Y-2.7724 Z.0696
N1880 X1.5926 Y-2.8113 Z.0676
N1882 X1.5836 Y-2.8495 Z.0655
N1884 X1.5711 Y-2.8867 Z.0635
N1886 X1.5553 Y-2.9226 Z.0614
N1888 X1.5362 Y-2.9569 Z.0593
N1890 X1.514 Y-2.9893 Z.0573
N1892 X1.4889 Y-3.0195 Z.0552
N1894 X1.4611 Y-3.0473 Z.0532
N1896 X1.4309 Y-3.0724 Z.0511
N1898 X1.3985 Y-3.0946 Z.0491
N1900 X1.3642 Y-3.1137 Z.047
N1902 X1.3283 Y-3.1295 Z.0449
N1904 X1.2911 Y-3.142 Z.0429
N1906 X1.2529 Y-3.151 Z.0408
N1908 X1.214 Y-3.1564 Z.0388
N1910 X1.1748 Y-3.1582 Z.0367
N1912 X1.1356 Y-3.1564 Z.0346
N1914 X1.0967 Y-3.151 Z.0326
N1916 X1.0585 Y-3.142 Z.0305
N1918 X1.0213 Y-3.1295 Z.0285
N1920 X.9854 Y-3.1137 Z.0264
N1922 X.9511 Y-3.0946 Z.0243
N1924 X.9187 Y-3.0724 Z.0223
N1926 X.8885 Y-3.0473 Z.0202
N1928 X.8607 Y-3.0195 Z.0182
N1930 X.8356 Y-2.9893 Z.0161
N1932 X.8134 Y-2.9569 Z.0141
N1934 X.7943 Y-2.9226 Z.012
N1936 X.7785 Y-2.8867 Z.0099
N1938 X.766 Y-2.8495 Z.0079
N1940 X.757 Y-2.8113 Z.0058
N1942 X.7516 Y-2.7724 Z.0038
N1944 X.7498 Y-2.7332 Z.0017
N1946 X.7516 Y-2.694 Z-.0004
N1948 X.757 Y-2.6551 Z-.0024
N1950 X.766 Y-2.6169 Z-.0045
N1952 X.7785 Y-2.5797 Z-.0065
N1954 X.7943 Y-2.5438 Z-.0086
N1956 X.8134 Y-2.5095 Z-.0106
N1958 X.8356 Y-2.4771 Z-.0127
N1960 X.8607 Y-2.4469 Z-.0147
N1962 X.8885 Y-2.4191 Z-.0168
N1964 X.9187 Y-2.394 Z-.0188
N1966 X.9511 Y-2.3718 Z-.0209
N1968 X.9854 Y-2.3527 Z-.0229
N1970 X1.0213 Y-2.3369 Z-.025
N1972 X1.0585 Y-2.3244 Z-.027
N1974 X1.0967 Y-2.3154 Z-.0291
N1976 X1.1356 Y-2.31 Z-.0311
N1978 X1.1748 Y-2.3082 Z-.0332
N1980 X1.2066 Y-2.3094 Z-.0349
N1982 X1.2382 Y-2.3129 Z-.0365
N1984 X1.2695 Y-2.3189 Z-.0382
N1986 X1.3002 Y-2.3271 Z-.0399
N1988 X1.337 Y-2.3403 Z-.042
N1990 X1.3724 Y-2.3569 Z-.044
N1992 X1.4062 Y-2.3767 Z-.0461
N1994 X1.438 Y-2.3994 Z-.0481
N1996 X1.4675 Y-2.425 Z-.0502
N1998 X1.4946 Y-2.4533 Z-.0522
N2000 X1.519 Y-2.4838 Z-.0543
N2002 X1.5404 Y-2.5165 Z-.0563
N2004 X1.5588 Y-2.551 Z-.0584
N2006 X1.5739 Y-2.5871 Z-.0604
N2008 X1.5857 Y-2.6244 Z-.0625
N2010 X1.3165 Y-2.6957
N2012 G2 X1.1049 Y-2.7097 I-.2116 J1.5908
N2014 X1. Y-2.7063 I0. J1.6048
N2016 G1 Y-2.8284
N2018 G3 X1.3165 Y-2.6957 I-1. J2.8284
N2020 G1 X2.6957 Y-1.3165
N2022 G3 X2.8284 Y-1. I-2.6957 J1.3165
N2024 G1 X2.7063
N2026 G2 X2.7097 Y-1.1049 I-1.6014 J-.1049
N2028 X2.6957 Y-1.3165 I-1.6048 J0.
N2030 G1 X2.6955
N2032 X2.7026 Y-1.293
N2034 X2.716 Y-1.2446
N2036 X2.7283 Y-1.196
N2038 X2.7393 Y-1.1472
N2040 X2.7492 Y-1.0983
N2042 X2.758 Y-1.0492
N2044 X2.7233 Y-1.016
N2046 X2.6886 Y-.9835
N2048 X2.6539 Y-.9517
N2050 X2.6192 Y-.9207
N2052 X2.5845 Y-.8903
N2054 X2.5498 Y-.8606
N2056 X2.5151 Y-.8316
N2058 X2.4804 Y-.8034
N2060 X2.4457 Y-.7758
N2062 X2.4124 Y-.75
N2064 G2 X2.4597 Y-1.1049 I-1.3075 J-.3549
N2066 X1.1049 Y-2.4597 I-1.3548 J0.
N2068 X.75 Y-2.4124 I0. J1.3548
N2070 G1 Y-3.1623
N2072 G3 X3.1623 Y-.75 I-.75 J3.1623
N2074 G1 X2.4124
N2076 X2.0294 Y-.5
N2078 G2 X2.2097 Y-1.1049 I-.9245 J-.6049
N2080 X1.1049 Y-2.2097 I-1.1048 J0.
N2082 X.5 Y-2.0294 I0. J1.1048
N2084 G1 Y-3.4641
N2086 G3 X3.4641 Y-.5 I-.5 J3.4641
N2088 G1 X2.0294
N2090 Z.1375 F6.42
N2092 G0 Z.1875
N2094 X1.3002 Y-2.3271
N2096 Z.1375
N2098 G1 Z.0375
N2100 X1.3365 Y-2.3401 Z.0355 F12.
N2102 X1.3715 Y-2.3564 Z.0335
N2104 X1.4048 Y-2.3758 Z.0314
N2106 X1.4363 Y-2.3981 Z.0294
N2108 X1.4656 Y-2.4232 Z.0274
N2110 X1.4925 Y-2.4509 Z.0254
N2112 X1.5168 Y-2.4809 Z.0234
N2114 X1.5383 Y-2.5129 Z.0213
N2116 X1.5568 Y-2.5468 Z.0193
N2118 X1.5721 Y-2.5822 Z.0173
N2120 X1.5841 Y-2.6188 Z.0153
N2122 X1.5928 Y-2.6564 Z.0132
N2124 X1.5981 Y-2.6947 Z.0112
N2126 X1.5998 Y-2.7332 Z.0092
N2128 X1.598 Y-2.7724 Z.0071
N2130 X1.5926 Y-2.8113 Z.0051
N2132 X1.5836 Y-2.8495 Z.003
N2134 X1.5711 Y-2.8867 Z.001
N2136 X1.5553 Y-2.9226 Z-.0011
N2138 X1.5362 Y-2.9569 Z-.0032
N2140 X1.514 Y-2.9893 Z-.0052
N2142 X1.4889 Y-3.0195 Z-.0073
N2144 X1.4611 Y-3.0473 Z-.0093
N2146 X1.4309 Y-3.0724 Z-.0114
N2148 X1.3985 Y-3.0946 Z-.0134
N2150 X1.3642 Y-3.1137 Z-.0155
N2152 X1.3283 Y-3.1295 Z-.0176
N2154 X1.2911 Y-3.142 Z-.0196
N2156 X1.2529 Y-3.151 Z-.0217
N2158 X1.214 Y-3.1564 Z-.0237
N2160 X1.1748 Y-3.1582 Z-.0258
N2162 X1.1356 Y-3.1564 Z-.0279
N2164 X1.0967 Y-3.151 Z-.0299
N2166 X1.0585 Y-3.142 Z-.032
N2168 X1.0213 Y-3.1295 Z-.034
N2170 X.9854 Y-3.1137 Z-.0361
N2172 X.9511 Y-3.0946 Z-.0382
N2174 X.9187 Y-3.0724 Z-.0402
N2176 X.8885 Y-3.0473 Z-.0423
N2178 X.8607 Y-3.0195 Z-.0443
N2180 X.8356 Y-2.9893 Z-.0464
N2182 X.8134 Y-2.9569 Z-.0484
N2184 X.7943 Y-2.9226 Z-.0505
N2186 X.7785 Y-2.8867 Z-.0526
N2188 X.766 Y-2.8495 Z-.0546
N2190 X.757 Y-2.8113 Z-.0567
N2192 X.7516 Y-2.7724 Z-.0587
N2194 X.7498 Y-2.7332 Z-.0608
N2196 X.7516 Y-2.694 Z-.0629
N2198 X.757 Y-2.6551 Z-.0649
N2200 X.766 Y-2.6169 Z-.067
N2202 X.7785 Y-2.5797 Z-.069
N2204 X.7943 Y-2.5438 Z-.0711
N2206 X.8134 Y-2.5095 Z-.0731
N2208 X.8356 Y-2.4771 Z-.0752
N2210 X.8607 Y-2.4469 Z-.0772
N2212 X.8885 Y-2.4191 Z-.0793
N2214 X.9187 Y-2.394 Z-.0813
N2216 X.9511 Y-2.3718 Z-.0834
N2218 X.9854 Y-2.3527 Z-.0854
N2220 X1.0213 Y-2.3369 Z-.0875
N2222 X1.0585 Y-2.3244 Z-.0895
N2224 X1.0967 Y-2.3154 Z-.0916
N2226 X1.1356 Y-2.31 Z-.0936
N2228 X1.1748 Y-2.3082 Z-.0957
N2230 X1.2066 Y-2.3094 Z-.0974
N2232 X1.2382 Y-2.3129 Z-.099
N2234 X1.2695 Y-2.3189 Z-.1007
N2236 X1.3002 Y-2.3271 Z-.1024
N2238 X1.337 Y-2.3403 Z-.1045
N2240 X1.3724 Y-2.3569 Z-.1065
N2242 X1.4062 Y-2.3767 Z-.1086
N2244 X1.438 Y-2.3994 Z-.1106
N2246 X1.4675 Y-2.425 Z-.1127
N2248 X1.4946 Y-2.4533 Z-.1147
N2250 X1.519 Y-2.4838 Z-.1168
N2252 X1.5404 Y-2.5165 Z-.1188
N2254 X1.5588 Y-2.551 Z-.1209
N2256 X1.5739 Y-2.5871 Z-.1229
N2258 X1.5857 Y-2.6244 Z-.125
N2260 X1.3165 Y-2.6957
N2262 G2 X1.1049 Y-2.7097 I-.2116 J1.5908
N2264 X1. Y-2.7063 I0. J1.6048
N2266 G1 Y-2.8284
N2268 G3 X1.3165 Y-2.6957 I-1. J2.8284
N2270 G1 X2.6957 Y-1.3165
N2272 G3 X2.8284 Y-1. I-2.6957 J1.3165
N2274 G1 X2.7063
N2276 G2 X2.7097 Y-1.1049 I-1.6014 J-.1049
N2278 X2.6957 Y-1.3165 I-1.6048 J0.
N2280 G1 X2.6955
N2282 X2.7026 Y-1.293
N2284 X2.716 Y-1.2446
N2286 X2.7283 Y-1.196
N2288 X2.7393 Y-1.1472
N2290 X2.7492 Y-1.0983
N2292 X2.758 Y-1.0492
N2294 X2.7233 Y-1.016
N2296 X2.6886 Y-.9835
N2298 X2.6539 Y-.9517
N2300 X2.6192 Y-.9207
N2302 X2.5845 Y-.8903
N2304 X2.5498 Y-.8606
N2306 X2.5151 Y-.8316
N2308 X2.4804 Y-.8034
N2310 X2.4457 Y-.7758
N2312 X2.4124 Y-.75
N2314 G2 X2.4597 Y-1.1049 I-1.3075 J-.3549
N2316 X1.1049 Y-2.4597 I-1.3548 J0.
N2318 X.75 Y-2.4124 I0. J1.3548
N2320 G1 Y-3.1623
N2322 G3 X3.1623 Y-.75 I-.75 J3.1623
N2324 G1 X2.4124
N2326 X2.0294 Y-.5
N2328 G2 X2.2097 Y-1.1049 I-.9245 J-.6049
N2330 X1.1049 Y-2.2097 I-1.1048 J0.
N2332 X.5 Y-2.0294 I0. J1.1048
N2334 G1 Y-3.4641
N2336 G3 X3.4641 Y-.5 I-.5 J3.4641
N2338 G1 X2.0294
N2340 Z.075 F6.42
N2342 G0 Z.125
N2344 Z.25
N2346 X-.9592 Y-2.4001
N2348 Z.2
N2350 G1 Z.1
N2352 X-.9229 Y-2.4055 Z.0981 F12.
N2354 X-.8872 Y-2.4142 Z.0961
N2356 X-.8525 Y-2.4262 Z.0942
N2358 X-.8191 Y-2.4413 Z.0923
N2360 X-.7872 Y-2.4593 Z.0904
N2362 X-.757 Y-2.4803 Z.0885
N2364 X-.7289 Y-2.5039 Z.0865
N2366 X-.7031 Y-2.53 Z.0846
N2368 X-.6798 Y-2.5583 Z.0827
N2370 X-.6592 Y-2.5887 Z.0808
N2372 X-.6414 Y-2.6208 Z.0788
N2374 X-.6267 Y-2.6544 Z.0769
N2376 X-.6151 Y-2.6892 Z.075
N2378 X-.6067 Y-2.725 Z.0731
N2380 X-.6017 Y-2.7613 Z.0711
N2382 X-.6 Y-2.798 Z.0692
N2384 X-.6017 Y-2.8349 Z.0673
N2386 X-.6068 Y-2.8715 Z.0653
N2388 X-.6153 Y-2.9075 Z.0634
N2390 X-.627 Y-2.9425 Z.0615
N2392 X-.6419 Y-2.9763 Z.0595
N2394 X-.6599 Y-3.0086 Z.0576
N2396 X-.6808 Y-3.039 Z.0557
N2398 X-.7044 Y-3.0675 Z.0537
N2400 X-.7305 Y-3.0936 Z.0518
N2402 X-.759 Y-3.1172 Z.0498
N2404 X-.7894 Y-3.1381 Z.0479
N2406 X-.8217 Y-3.1561 Z.046
N2408 X-.8555 Y-3.171 Z.044
N2410 X-.8905 Y-3.1827 Z.0421
N2412 X-.9265 Y-3.1912 Z.0402
N2414 X-.9631 Y-3.1963 Z.0382
N2416 X-1. Y-3.198 Z.0363
N2418 X-1.0369 Y-3.1963 Z.0344
N2420 X-1.0735 Y-3.1912 Z.0324
N2422 X-1.1095 Y-3.1827 Z.0305
N2424 X-1.1445 Y-3.171 Z.0286
N2426 X-1.1783 Y-3.1561 Z.0266
N2428 X-1.2106 Y-3.1381 Z.0247
N2430 X-1.241 Y-3.1172 Z.0228
N2432 X-1.2695 Y-3.0936 Z.0208
N2434 X-1.2956 Y-3.0675 Z.0189
N2436 X-1.3192 Y-3.039 Z.0169
N2438 X-1.3401 Y-3.0086 Z.015
N2440 X-1.3581 Y-2.9763 Z.0131
N2442 X-1.373 Y-2.9425 Z.0111
N2444 X-1.3847 Y-2.9075 Z.0092
N2446 X-1.3932 Y-2.8715 Z.0073
N2448 X-1.3983 Y-2.8349 Z.0053
N2450 X-1.4 Y-2.798 Z.0034
N2452 X-1.3983 Y-2.7611 Z.0015
N2454 X-1.3932 Y-2.7245 Z-.0005
N2456 X-1.3847 Y-2.6885 Z-.0024
N2458 X-1.373 Y-2.6535 Z-.0044
N2460 X-1.3581 Y-2.6197 Z-.0063
N2462 X-1.3401 Y-2.5874 Z-.0082
N2464 X-1.3192 Y-2.557 Z-.0102
N2466 X-1.2956 Y-2.5285 Z-.0121
N2468 X-1.2695 Y-2.5024 Z-.0141
N2470 X-1.241 Y-2.4788 Z-.016
N2472 X-1.2106 Y-2.4579 Z-.018
N2474 X-1.1783 Y-2.4399 Z-.0199
N2476 X-1.1445 Y-2.425 Z-.0218
N2478 X-1.1095 Y-2.4133 Z-.0238
N2480 X-1.0735 Y-2.4048 Z-.0257
N2482 X-1.0369 Y-2.3997 Z-.0277
N2484 X-1. Y-2.398 Z-.0296
N2486 X-.9796 Y-2.3985 Z-.0307
N2488 X-.9592 Y-2.4001 Z-.0317
N2490 X-.9229 Y-2.4055 Z-.0336
N2492 X-.8872 Y-2.4142 Z-.0355
N2494 X-.8525 Y-2.4262 Z-.0375
N2496 X-.8191 Y-2.4413 Z-.0394
N2498 X-.7872 Y-2.4593 Z-.0413
N2500 X-.757 Y-2.4803 Z-.0432
N2502 X-.7289 Y-2.5039 Z-.0452
N2504 X-.7031 Y-2.53 Z-.0471
N2506 X-.6798 Y-2.5583 Z-.049
N2508 X-.6592 Y-2.5887 Z-.0509
N2510 X-.6414 Y-2.6208 Z-.0529
N2512 X-.6267 Y-2.6544 Z-.0548
N2514 X-.6151 Y-2.6892 Z-.0567
N2516 X-.6067 Y-2.725 Z-.0587
N2518 X-.6017 Y-2.7613 Z-.0606
N2520 X-.6 Y-2.798 Z-.0625
N2522 X-1.
N2524 G2 X-1.1064 Y-2.75 I.409 J1.048
N2526 G1 X-1.199
N2528 G3 X-1. Y-2.8284 I1.199 J2.75
N2530 G1 Y-2.798
N2532 X-1.0145 Y-2.8079
N2534 X-1.0387 Y-2.7984
N2536 X-1.0628 Y-2.7886
N2538 X-1.0868 Y-2.7784
N2540 X-1.1106 Y-2.7677
N2542 X-1.098 Y-2.7156
N2544 X-1.0858 Y-2.6668
N2546 X-1.0742 Y-2.6213
N2548 X-1.063 Y-2.5787
N2550 X-1.0523 Y-2.5388
N2552 X-1.0421 Y-2.5015
N2554 X-1.0417 Y-2.5
N2556 X-2.0767
N2558 G3 X-.75 Y-3.1623 I2.0767 J2.5
N2560 G1 Y-2.6104
N2562 G2 X-1.0417 Y-2.5 I.159 J.8604
N2564 G1 X-.966 Y-2.25
N2566 X-2.216
N2568 G2 X-2.5712 Y-2.3747 I-.375 J.5
N2570 G3 X-.5 Y-3.4641 I2.5712 J2.3747
N2572 G1 Y-2.375
N2574 X-.591
N2576 G2 X-.966 Y-2.25 I0. J.625
N2578 G1 Z.1375 F6.42
N2580 G0 Z.1875
N2582 X-.9592 Y-2.4001
N2584 Z.1375
N2586 G1 Z.0375
N2588 X-.9229 Y-2.4055 Z.0356 F12.
N2590 X-.8872 Y-2.4142 Z.0336
N2592 X-.8525 Y-2.4262 Z.0317
N2594 X-.8191 Y-2.4413 Z.0298
N2596 X-.7872 Y-2.4593 Z.0279
N2598 X-.757 Y-2.4803 Z.026
N2600 X-.7289 Y-2.5039 Z.024
N2602 X-.7031 Y-2.53 Z.0221
N2604 X-.6798 Y-2.5583 Z.0202
N2606 X-.6592 Y-2.5887 Z.0182
N2608 X-.6414 Y-2.6208 Z.0163
N2610 X-.6267 Y-2.6544 Z.0144
N2612 X-.6151 Y-2.6892 Z.0125
N2614 X-.6067 Y-2.725 Z.0106
N2616 X-.6017 Y-2.7613 Z.0086
N2618 X-.6 Y-2.798 Z.0067
N2620 X-.6017 Y-2.8349 Z.0048
N2622 X-.6068 Y-2.8715 Z.0028
N2624 X-.6153 Y-2.9075 Z.0009
N2626 X-.627 Y-2.9425 Z-.001
N2628 X-.6419 Y-2.9763 Z-.003
N2630 X-.6599 Y-3.0086 Z-.0049
N2632 X-.6808 Y-3.039 Z-.0068
N2634 X-.7044 Y-3.0675 Z-.0088
N2636 X-.7305 Y-3.0936 Z-.0107
N2638 X-.759 Y-3.1172 Z-.0127
N2640 X-.7894 Y-3.1381 Z-.0146
N2642 X-.8217 Y-3.1561 Z-.0165
N2644 X-.8555 Y-3.171 Z-.0185
N2646 X-.8905 Y-3.1827 Z-.0204
N2648 X-.9265 Y-3.1912 Z-.0223
N2650 X-.9631 Y-3.1963 Z-.0243
N2652 X-1. Y-3.198 Z-.0262
N2654 X-1.0369 Y-3.1963 Z-.0281
N2656 X-1.0735 Y-3.1912 Z-.0301
N2658 X-1.1095 Y-3.1827 Z-.032
N2660 X-1.1445 Y-3.171 Z-.0339
N2662 X-1.1783 Y-3.1561 Z-.0359
N2664 X-1.2106 Y-3.1381 Z-.0378
N2666 X-1.241 Y-3.1172 Z-.0397
N2668 X-1.2695 Y-3.0936 Z-.0417
N2670 X-1.2956 Y-3.0675 Z-.0436
N2672 X-1.3192 Y-3.039 Z-.0456
N2674 X-1.3401 Y-3.0086 Z-.0475
N2676 X-1.3581 Y-2.9763 Z-.0494
N2678 X-1.373 Y-2.9425 Z-.0514
N2680 X-1.3847 Y-2.9075 Z-.0533
N2682 X-1.3932 Y-2.8715 Z-.0552
N2684 X-1.3983 Y-2.8349 Z-.0572
N2686 X-1.4 Y-2.798 Z-.0591
N2688 X-1.3983 Y-2.7611 Z-.061
N2690 X-1.3932 Y-2.7245 Z-.063
N2692 X-1.3847 Y-2.6885 Z-.0649
N2694 X-1.373 Y-2.6535 Z-.0669
N2696 X-1.3581 Y-2.6197 Z-.0688
N2698 X-1.3401 Y-2.5874 Z-.0707
N2700 X-1.3192 Y-2.557 Z-.0727
N2702 X-1.2956 Y-2.5285 Z-.0746
N2704 X-1.2695 Y-2.5024 Z-.0766
N2706 X-1.241 Y-2.4788 Z-.0785
N2708 X-1.2106 Y-2.4579 Z-.0805
N2710 X-1.1783 Y-2.4399 Z-.0824
N2712 X-1.1445 Y-2.425 Z-.0843
N2714 X-1.1095 Y-2.4133 Z-.0863
N2716 X-1.0735 Y-2.4048 Z-.0882
N2718 X-1.0369 Y-2.3997 Z-.0902
N2720 X-1. Y-2.398 Z-.0921
N2722 X-.9796 Y-2.3985 Z-.0932
N2724 X-.9592 Y-2.4001 Z-.0942
N2726 X-.9229 Y-2.4055 Z-.0961
N2728 X-.8872 Y-2.4142 Z-.098
N2730 X-.8525 Y-2.4262 Z-.1
N2732 X-.8191 Y-2.4413 Z-.1019
N2734 X-.7872 Y-2.4593 Z-.1038
N2736 X-.757 Y-2.4803 Z-.1058
N2738 X-.7289 Y-2.5039 Z-.1077
N2740 X-.7031 Y-2.53 Z-.1096
N2742 X-.6798 Y-2.5583 Z-.1115
N2744 X-.6592 Y-2.5887 Z-.1135
N2746 X-.6414 Y-2.6208 Z-.1154
N2748 X-.6267 Y-2.6544 Z-.1173
N2750 X-.6151 Y-2.6892 Z-.1192
N2752 X-.6067 Y-2.725 Z-.1212
N2754 X-.6017 Y-2.7613 Z-.1231
N2756 X-.6 Y-2.798 Z-.125
N2758 X-1.
N2760 G2 X-1.1064 Y-2.75 I.409 J1.048
N2762 G1 X-1.199
N2764 G3 X-1. Y-2.8284 I1.199 J2.75
N2766 G1 Y-2.798
N2768 X-1.0145 Y-2.8079
N2770 X-1.0387 Y-2.7984
N2772 X-1.0628 Y-2.7886
N2774 X-1.0868 Y-2.7784
N2776 X-1.1106 Y-2.7677
N2778 X-1.098 Y-2.7156
N2780 X-1.0858 Y-2.6668
N2782 X-1.0742 Y-2.6213
N2784 X-1.063 Y-2.5787
N2786 X-1.0523 Y-2.5388
N2788 X-1.0421 Y-2.5015
N2790 X-1.0417 Y-2.5
N2792 X-2.0767
N2794 G3 X-.75 Y-3.1623 I2.0767 J2.5
N2796 G1 Y-2.6104
N2798 G2 X-1.0417 Y-2.5 I.159 J.8604
N2800 G1 X-.966 Y-2.25
N2802 X-2.216
N2804 G2 X-2.5712 Y-2.3747 I-.375 J.5
N2806 G3 X-.5 Y-3.4641 I2.5712 J2.3747
N2808 G1 Y-2.375
N2810 X-.591
N2812 G2 X-.966 Y-2.25 I0. J.625
N2814 G1 Z.075 F6.42
N2816 G0 Z.125
N2818 Z.25
N2820 X-.559 Y-.5
N2822 Z.2
N2824 G1 Z-.0625
N2826 X-3.4641 F12.
N2828 G3 X-3.4187 Y-.75 I3.4641 J.5
N2830 G1 X-2.966
N2832 G2 X-2.591 Y-.625 I.375 J-.5
N2834 X-2.216 Y-.75 I0. J-.625
N2836 G1 X-.966
N2838 G2 X-.591 Y-.625 I.375 J-.5
N2840 G1 X-.5
N2842 Y-.559
N2844 G2 X-.559 Y-.5 I.5 J.559
N2846 G1 Z-.125 F6.42
N2848 X-3.4641 F12.
N2850 G3 X-3.4187 Y-.75 I3.4641 J.5
N2852 G1 X-2.966
N2854 G2 X-2.591 Y-.625 I.375 J-.5
N2856 X-2.216 Y-.75 I0. J-.625
N2858 G1 X-.966
N2860 G2 X-.591 Y-.625 I.375 J-.5
N2862 G1 X-.5
N2864 Y-.559
N2866 G2 X-.559 Y-.5 I.5 J.559
N2868 G1 Z.075 F6.42
N2870 G0 Z.25
N2872 X0. Y-4.25
N2874 Z.2
N2876 G1 Z-.0827
N2878 G2 X-4.25 Y0. I0. J4.25 F12.
N2880 X0. Y4.25 I4.25 J0.
N2882 X4.25 Y0. I0. J-4.25
N2884 X0. Y-4.25 I-4.25 J0.
N2886 G1 Z-.1653 F6.42
N2888 G2 X-4.25 Y0. I0. J4.25 F12.
N2890 X0. Y4.25 I4.25 J0.
N2892 X4.25 Y0. I0. J-4.25
N2894 X0. Y-4.25 I-4.25 J0.
N2896 G1 Z-.248 F6.42
N2898 G2 X-4.25 Y0. I0. J4.25 F12.
N2900 X0. Y4.25 I4.25 J0.
N2902 X4.25 Y0. I0. J-4.25
N2904 X0. Y-4.25 I-4.25 J0.
N2906 G1 Z-.048 F6.42
N2908 G0 Z.25
N2910 M5
N2912 G91 G28 Z0. M9
N2914 G28 X0. Y0. A0.
N2916 M30
%
